(G-CODE GENERATED BY FLATCAM v8.994 - www.flatcam.org - Version Date: 2020/11/7)

(Name: Prueba de Componentes-F_Cu.gbr_iso_combined_cnc)
(Type: G-code from Geometry)
(Units: MM)

(Created on Sunday, 10 March 2024 at 15:08)

(This preprocessor is the default preprocessor used by FlatCAM.)
(It is made to work with MACH3 compatible motion controllers.)

(TOOL DIAMETER: 0.2 mm)
(Feedrate_XY: 120.0 mm/min)
(Feedrate_Z: 20.0 mm/min)
(Feedrate rapids 1500.0 mm/min)

(Z_Cut: 0.0 mm)
(Z_Move: 2.0 mm)
(Z Start: None mm)
(Z End: 3.0 mm)
(X,Y End: None mm)
(Steps per circle: 64)
(Preprocessor Geometry: default)

(X range:  -76.1900 ...    0.2095  mm)
(Y range:   -0.0795 ...   80.1295  mm)

(Spindle Speed: 1000.0 RPM)
G21
G90
G94

G01 F120.00

M5
G00 Z15.0000
G00 X0.0000 Y0.0000
T1
M6    
(MSG, Change to Tool Dia = 0.2000)
M0
G00 Z15.0000

M03 S1000.0
G01 F120.00
G00 X-20.2086 Y7.6400
G01 F20.00
G01 Z0.0000
G01 F120.00
G01 X-20.1842 Y7.1422
G01 X-20.1111 Y6.6492
G01 X-19.9900 Y6.1657
G01 X-19.8221 Y5.6965
G01 X-19.6090 Y5.2459
G01 X-19.3527 Y4.8185
G01 X-19.0558 Y4.4181
G01 X-18.7211 Y4.0489
G01 X-18.3519 Y3.7142
G01 X-17.9515 Y3.4173
G01 X-17.5241 Y3.1610
G01 X-17.0735 Y2.9479
G01 X-16.6043 Y2.7800
G01 X-16.1208 Y2.6589
G01 X-15.6278 Y2.5858
G01 X-15.1300 Y2.5614
G01 X-14.6322 Y2.5858
G01 X-14.1392 Y2.6589
G01 X-13.6557 Y2.7800
G01 X-13.1865 Y2.9479
G01 X-12.7359 Y3.1610
G01 X-12.3085 Y3.4173
G01 X-11.9081 Y3.7142
G01 X-11.5389 Y4.0489
G01 X-11.2042 Y4.4181
G01 X-10.9073 Y4.8185
G01 X-10.6510 Y5.2459
G01 X-10.4379 Y5.6965
G01 X-10.2700 Y6.1657
G01 X-10.1489 Y6.6492
G01 X-10.0758 Y7.1422
G01 X-10.0514 Y7.6400
G01 X-10.0758 Y8.1378
G01 X-10.1489 Y8.6308
G01 X-10.2700 Y9.1143
G01 X-10.4379 Y9.5835
G01 X-10.6510 Y10.0341
G01 X-10.9073 Y10.4615
G01 X-11.2042 Y10.8619
G01 X-11.5389 Y11.2311
G01 X-11.9081 Y11.5658
G01 X-12.3085 Y11.8627
G01 X-12.7359 Y12.1190
G01 X-13.1865 Y12.3321
G01 X-13.6557 Y12.5000
G01 X-14.1392 Y12.6211
G01 X-14.6322 Y12.6942
G01 X-15.1300 Y12.7186
G01 X-15.6278 Y12.6942
G01 X-16.1208 Y12.6211
G01 X-16.6043 Y12.5000
G01 X-17.0735 Y12.3321
G01 X-17.5241 Y12.1190
G01 X-17.9515 Y11.8627
G01 X-18.3519 Y11.5658
G01 X-18.7211 Y11.2311
G01 X-19.0558 Y10.8619
G01 X-19.3527 Y10.4615
G01 X-19.6090 Y10.0341
G01 X-19.8221 Y9.5835
G01 X-19.9900 Y9.1143
G01 X-20.1111 Y8.6308
G01 X-20.1842 Y8.1378
G01 X-20.2086 Y7.6400
G00 Z2.0000
G00 X-21.4091 Y7.6105
G01 F20.00
G01 Z0.0000
G01 F120.00
G01 X-21.3818 Y7.0538
G01 X-21.3766 Y7.0001
G01 X-21.2942 Y6.4439
G01 X-21.2838 Y6.3909
G01 X-21.1473 Y5.8454
G01 X-21.1318 Y5.7937
G01 X-20.9424 Y5.2643
G01 X-20.9219 Y5.2144
G01 X-20.6816 Y4.7060
G01 X-20.6562 Y4.6583
G01 X-20.3673 Y4.1760
G01 X-20.3374 Y4.1310
G01 X-20.0025 Y3.6793
G01 X-19.9684 Y3.6375
G01 X-19.5908 Y3.2208
G01 X-19.5528 Y3.1825
G01 X-19.1362 Y2.8048
G01 X-19.0945 Y2.7705
G01 X-18.6430 Y2.4354
G01 X-18.5982 Y2.4053
G01 X-18.1159 Y2.1162
G01 X-18.0684 Y2.0906
G01 X-17.5601 Y1.8501
G01 X-17.5103 Y1.8293
G01 X-16.9809 Y1.6398
G01 X-16.9293 Y1.6240
G01 X-16.3839 Y1.4873
G01 X-16.3309 Y1.4766
G01 X-15.7748 Y1.3940
G01 X-15.7210 Y1.3886
G01 X-15.1595 Y1.3609
G01 X-15.1055 Y1.3607
G01 X-14.5438 Y1.3882
G01 X-14.4901 Y1.3934
G01 X-13.9339 Y1.4758
G01 X-13.8809 Y1.4862
G01 X-13.3354 Y1.6227
G01 X-13.2837 Y1.6382
G01 X-12.7543 Y1.8276
G01 X-12.7044 Y1.8481
G01 X-12.1960 Y2.0884
G01 X-12.1483 Y2.1138
G01 X-11.6660 Y2.4027
G01 X-11.6210 Y2.4326
G01 X-11.1693 Y2.7675
G01 X-11.1275 Y2.8016
G01 X-10.7108 Y3.1792
G01 X-10.6725 Y3.2172
G01 X-10.2948 Y3.6338
G01 X-10.2605 Y3.6755
G01 X-9.9254 Y4.1270
G01 X-9.8953 Y4.1718
G01 X-9.6062 Y4.6541
G01 X-9.5806 Y4.7016
G01 X-9.3401 Y5.2099
G01 X-9.3193 Y5.2597
G01 X-9.1298 Y5.7891
G01 X-9.1140 Y5.8407
G01 X-8.9773 Y6.3861
G01 X-8.9666 Y6.4391
G01 X-8.8840 Y6.9952
G01 X-8.8786 Y7.0490
G01 X-8.8509 Y7.6105
G01 X-8.8507 Y7.6645
G01 X-8.8782 Y8.2262
G01 X-8.8834 Y8.2799
G01 X-8.9658 Y8.8361
G01 X-8.9762 Y8.8891
G01 X-9.1127 Y9.4346
G01 X-9.1282 Y9.4863
G01 X-9.3176 Y10.0157
G01 X-9.3381 Y10.0656
G01 X-9.5784 Y10.5740
G01 X-9.6038 Y10.6217
G01 X-9.8927 Y11.1040
G01 X-9.9226 Y11.1490
G01 X-10.2575 Y11.6007
G01 X-10.2916 Y11.6425
G01 X-10.6692 Y12.0592
G01 X-10.7072 Y12.0975
G01 X-11.1238 Y12.4752
G01 X-11.1655 Y12.5095
G01 X-11.6170 Y12.8446
G01 X-11.6618 Y12.8747
G01 X-12.1441 Y13.1638
G01 X-12.1916 Y13.1894
G01 X-12.6999 Y13.4299
G01 X-12.7497 Y13.4507
G01 X-13.2791 Y13.6402
G01 X-13.3307 Y13.6560
G01 X-13.8761 Y13.7927
G01 X-13.9291 Y13.8034
G01 X-14.4852 Y13.8860
G01 X-14.5390 Y13.8914
G01 X-15.1005 Y13.9191
G01 X-15.1545 Y13.9193
G01 X-15.7162 Y13.8918
G01 X-15.7699 Y13.8866
G01 X-16.3261 Y13.8042
G01 X-16.3791 Y13.7938
G01 X-16.9246 Y13.6573
G01 X-16.9763 Y13.6418
G01 X-17.5057 Y13.4524
G01 X-17.5556 Y13.4319
G01 X-18.0640 Y13.1916
G01 X-18.1117 Y13.1662
G01 X-18.5940 Y12.8773
G01 X-18.6390 Y12.8474
G01 X-19.0907 Y12.5125
G01 X-19.1325 Y12.4784
G01 X-19.5492 Y12.1008
G01 X-19.5875 Y12.0628
G01 X-19.9652 Y11.6462
G01 X-19.9995 Y11.6045
G01 X-20.3346 Y11.1530
G01 X-20.3647 Y11.1082
G01 X-20.6538 Y10.6259
G01 X-20.6794 Y10.5784
G01 X-20.9199 Y10.0701
G01 X-20.9407 Y10.0203
G01 X-21.1302 Y9.4909
G01 X-21.1460 Y9.4393
G01 X-21.2827 Y8.8939
G01 X-21.2934 Y8.8409
G01 X-21.3760 Y8.2848
G01 X-21.3814 Y8.2310
G01 X-21.4091 Y7.6695
G01 X-21.4091 Y7.6105
G00 Z2.0000
G00 X-29.4905 Y3.9328
G01 F20.00
G01 Z0.0000
G01 F120.00
G01 X-29.4952 Y3.9138
G01 X-29.4982 Y3.8944
G01 X-29.4992 Y3.8846
G01 X-29.5000 Y3.8650
G01 X-29.5000 Y2.1150
G01 X-29.4992 Y2.0954
G01 X-29.4982 Y2.0856
G01 X-29.4952 Y2.0662
G01 X-29.4892 Y2.0424
G01 X-29.4810 Y2.0193
G01 X-29.4727 Y2.0015
G01 X-29.4681 Y1.9929
G01 X-29.4579 Y1.9761
G01 X-29.4463 Y1.9603
G01 X-29.4415 Y1.9544
G01 X-29.4268 Y1.9382
G01 X-29.4123 Y1.9250
G01 X-29.4047 Y1.9187
G01 X-29.3889 Y1.9071
G01 X-29.3721 Y1.8969
G01 X-29.3638 Y1.8925
G01 X-29.3457 Y1.8840
G01 X-29.3202 Y1.8751
G01 X-29.2988 Y1.8698
G01 X-29.2794 Y1.8668
G01 X-29.2721 Y1.8660
G01 X-29.2525 Y1.8650
G01 X-28.9500 Y1.8650
G01 X-28.9304 Y1.8658
G01 X-28.9206 Y1.8668
G01 X-28.9012 Y1.8698
G01 X-28.8774 Y1.8758
G01 X-28.8543 Y1.8840
G01 X-28.8365 Y1.8923
G01 X-28.8279 Y1.8969
G01 X-28.8111 Y1.9071
G01 X-28.7953 Y1.9187
G01 X-28.7877 Y1.9250
G01 X-28.7732 Y1.9382
G01 X-28.7567 Y1.9564
G01 X-28.7421 Y1.9761
G01 X-28.7319 Y1.9929
G01 X-28.7275 Y2.0012
G01 X-28.7190 Y2.0193
G01 X-28.7108 Y2.0424
G01 X-28.7059 Y2.0614
G01 X-28.7040 Y2.0711
G01 X-28.7010 Y2.0929
G01 X-28.7000 Y2.1150
G01 X-28.7000 Y3.8650
G01 X-28.7008 Y3.8846
G01 X-28.7018 Y3.8944
G01 X-28.7048 Y3.9138
G01 X-28.7108 Y3.9376
G01 X-28.7190 Y3.9607
G01 X-28.7273 Y3.9785
G01 X-28.7319 Y3.9871
G01 X-28.7421 Y4.0039
G01 X-28.7537 Y4.0197
G01 X-28.7600 Y4.0273
G01 X-28.7732 Y4.0418
G01 X-28.7914 Y4.0583
G01 X-28.8071 Y4.0700
G01 X-28.8153 Y4.0755
G01 X-28.8322 Y4.0855
G01 X-28.8498 Y4.0940
G01 X-28.8566 Y4.0969
G01 X-28.8750 Y4.1035
G01 X-28.8964 Y4.1091
G01 X-28.9061 Y4.1110
G01 X-28.9255 Y4.1138
G01 X-28.9475 Y4.1150
G01 X-29.2500 Y4.1150
G01 X-29.2745 Y4.1138
G01 X-29.2939 Y4.1110
G01 X-29.3012 Y4.1097
G01 X-29.3178 Y4.1055
G01 X-29.3272 Y4.1027
G01 X-29.3457 Y4.0960
G01 X-29.3678 Y4.0855
G01 X-29.3889 Y4.0729
G01 X-29.4047 Y4.0613
G01 X-29.4123 Y4.0550
G01 X-29.4250 Y4.0435
G01 X-29.4302 Y4.0382
G01 X-29.4433 Y4.0236
G01 X-29.4579 Y4.0039
G01 X-29.4705 Y3.9828
G01 X-29.4790 Y3.9652
G01 X-29.4819 Y3.9584
G01 X-29.4877 Y3.9422
G01 X-29.4905 Y3.9328
G00 Z2.0000
G00 X-30.7605 Y3.9328
G01 F20.00
G01 Z0.0000
G01 F120.00
G01 X-30.7652 Y3.9138
G01 X-30.7682 Y3.8944
G01 X-30.7692 Y3.8846
G01 X-30.7700 Y3.8650
G01 X-30.7700 Y2.1150
G01 X-30.7692 Y2.0954
G01 X-30.7682 Y2.0856
G01 X-30.7652 Y2.0662
G01 X-30.7592 Y2.0424
G01 X-30.7510 Y2.0193
G01 X-30.7427 Y2.0015
G01 X-30.7381 Y1.9929
G01 X-30.7279 Y1.9761
G01 X-30.7163 Y1.9603
G01 X-30.7115 Y1.9544
G01 X-30.6968 Y1.9382
G01 X-30.6823 Y1.9250
G01 X-30.6747 Y1.9187
G01 X-30.6589 Y1.9071
G01 X-30.6421 Y1.8969
G01 X-30.6338 Y1.8925
G01 X-30.6157 Y1.8840
G01 X-30.5902 Y1.8751
G01 X-30.5688 Y1.8698
G01 X-30.5494 Y1.8668
G01 X-30.5421 Y1.8660
G01 X-30.5225 Y1.8650
G01 X-30.2200 Y1.8650
G01 X-30.2004 Y1.8658
G01 X-30.1906 Y1.8668
G01 X-30.1712 Y1.8698
G01 X-30.1474 Y1.8758
G01 X-30.1243 Y1.8840
G01 X-30.1065 Y1.8923
G01 X-30.0979 Y1.8969
G01 X-30.0811 Y1.9071
G01 X-30.0653 Y1.9187
G01 X-30.0577 Y1.9250
G01 X-30.0432 Y1.9382
G01 X-30.0267 Y1.9564
G01 X-30.0121 Y1.9761
G01 X-30.0019 Y1.9929
G01 X-29.9975 Y2.0012
G01 X-29.9890 Y2.0193
G01 X-29.9808 Y2.0424
G01 X-29.9759 Y2.0614
G01 X-29.9740 Y2.0711
G01 X-29.9710 Y2.0929
G01 X-29.9700 Y2.1150
G01 X-29.9700 Y3.8650
G01 X-29.9708 Y3.8846
G01 X-29.9718 Y3.8944
G01 X-29.9748 Y3.9138
G01 X-29.9808 Y3.9376
G01 X-29.9890 Y3.9607
G01 X-29.9973 Y3.9785
G01 X-30.0019 Y3.9871
G01 X-30.0121 Y4.0039
G01 X-30.0237 Y4.0197
G01 X-30.0300 Y4.0273
G01 X-30.0432 Y4.0418
G01 X-30.0614 Y4.0583
G01 X-30.0771 Y4.0700
G01 X-30.0853 Y4.0755
G01 X-30.1022 Y4.0855
G01 X-30.1198 Y4.0940
G01 X-30.1266 Y4.0969
G01 X-30.1450 Y4.1035
G01 X-30.1664 Y4.1091
G01 X-30.1761 Y4.1110
G01 X-30.1955 Y4.1138
G01 X-30.2175 Y4.1150
G01 X-30.5200 Y4.1150
G01 X-30.5445 Y4.1138
G01 X-30.5639 Y4.1110
G01 X-30.5712 Y4.1097
G01 X-30.5878 Y4.1055
G01 X-30.5972 Y4.1027
G01 X-30.6157 Y4.0960
G01 X-30.6378 Y4.0855
G01 X-30.6589 Y4.0729
G01 X-30.6747 Y4.0613
G01 X-30.6823 Y4.0550
G01 X-30.6950 Y4.0435
G01 X-30.7002 Y4.0382
G01 X-30.7133 Y4.0236
G01 X-30.7279 Y4.0039
G01 X-30.7405 Y3.9828
G01 X-30.7490 Y3.9652
G01 X-30.7519 Y3.9584
G01 X-30.7577 Y3.9422
G01 X-30.7605 Y3.9328
G00 Z2.0000
G00 X-32.0305 Y3.9328
G01 F20.00
G01 Z0.0000
G01 F120.00
G01 X-32.0352 Y3.9138
G01 X-32.0382 Y3.8944
G01 X-32.0392 Y3.8846
G01 X-32.0400 Y3.8650
G01 X-32.0400 Y2.1150
G01 X-32.0392 Y2.0954
G01 X-32.0382 Y2.0856
G01 X-32.0352 Y2.0662
G01 X-32.0292 Y2.0424
G01 X-32.0210 Y2.0193
G01 X-32.0127 Y2.0015
G01 X-32.0081 Y1.9929
G01 X-31.9979 Y1.9761
G01 X-31.9863 Y1.9603
G01 X-31.9815 Y1.9544
G01 X-31.9668 Y1.9382
G01 X-31.9523 Y1.9250
G01 X-31.9447 Y1.9187
G01 X-31.9289 Y1.9071
G01 X-31.9121 Y1.8969
G01 X-31.9038 Y1.8925
G01 X-31.8857 Y1.8840
G01 X-31.8602 Y1.8751
G01 X-31.8388 Y1.8698
G01 X-31.8194 Y1.8668
G01 X-31.8121 Y1.8660
G01 X-31.7925 Y1.8650
G01 X-31.4900 Y1.8650
G01 X-31.4704 Y1.8658
G01 X-31.4606 Y1.8668
G01 X-31.4412 Y1.8698
G01 X-31.4174 Y1.8758
G01 X-31.3943 Y1.8840
G01 X-31.3765 Y1.8923
G01 X-31.3679 Y1.8969
G01 X-31.3511 Y1.9071
G01 X-31.3353 Y1.9187
G01 X-31.3277 Y1.9250
G01 X-31.3132 Y1.9382
G01 X-31.2967 Y1.9564
G01 X-31.2821 Y1.9761
G01 X-31.2719 Y1.9929
G01 X-31.2675 Y2.0012
G01 X-31.2590 Y2.0193
G01 X-31.2508 Y2.0424
G01 X-31.2459 Y2.0614
G01 X-31.2440 Y2.0711
G01 X-31.2410 Y2.0929
G01 X-31.2400 Y2.1150
G01 X-31.2400 Y3.8650
G01 X-31.2408 Y3.8846
G01 X-31.2418 Y3.8944
G01 X-31.2448 Y3.9138
G01 X-31.2508 Y3.9376
G01 X-31.2590 Y3.9607
G01 X-31.2673 Y3.9785
G01 X-31.2719 Y3.9871
G01 X-31.2821 Y4.0039
G01 X-31.2937 Y4.0197
G01 X-31.3000 Y4.0273
G01 X-31.3132 Y4.0418
G01 X-31.3314 Y4.0583
G01 X-31.3471 Y4.0700
G01 X-31.3553 Y4.0755
G01 X-31.3722 Y4.0855
G01 X-31.3898 Y4.0940
G01 X-31.3966 Y4.0969
G01 X-31.4150 Y4.1035
G01 X-31.4364 Y4.1091
G01 X-31.4461 Y4.1110
G01 X-31.4655 Y4.1138
G01 X-31.4875 Y4.1150
G01 X-31.7900 Y4.1150
G01 X-31.8145 Y4.1138
G01 X-31.8339 Y4.1110
G01 X-31.8412 Y4.1097
G01 X-31.8578 Y4.1055
G01 X-31.8672 Y4.1027
G01 X-31.8857 Y4.0960
G01 X-31.9078 Y4.0855
G01 X-31.9289 Y4.0729
G01 X-31.9447 Y4.0613
G01 X-31.9523 Y4.0550
G01 X-31.9650 Y4.0435
G01 X-31.9702 Y4.0382
G01 X-31.9833 Y4.0236
G01 X-31.9979 Y4.0039
G01 X-32.0105 Y3.9828
G01 X-32.0190 Y3.9652
G01 X-32.0219 Y3.9584
G01 X-32.0277 Y3.9422
G01 X-32.0305 Y3.9328
G00 Z2.0000
G00 X-33.3005 Y3.9328
G01 F20.00
G01 Z0.0000
G01 F120.00
G01 X-33.3052 Y3.9138
G01 X-33.3082 Y3.8944
G01 X-33.3092 Y3.8846
G01 X-33.3100 Y3.8650
G01 X-33.3100 Y2.1150
G01 X-33.3092 Y2.0954
G01 X-33.3082 Y2.0856
G01 X-33.3052 Y2.0662
G01 X-33.2992 Y2.0424
G01 X-33.2910 Y2.0193
G01 X-33.2827 Y2.0015
G01 X-33.2781 Y1.9929
G01 X-33.2679 Y1.9761
G01 X-33.2563 Y1.9603
G01 X-33.2515 Y1.9544
G01 X-33.2368 Y1.9382
G01 X-33.2223 Y1.9250
G01 X-33.2147 Y1.9187
G01 X-33.1989 Y1.9071
G01 X-33.1821 Y1.8969
G01 X-33.1738 Y1.8925
G01 X-33.1557 Y1.8840
G01 X-33.1302 Y1.8751
G01 X-33.1088 Y1.8698
G01 X-33.0894 Y1.8668
G01 X-33.0821 Y1.8660
G01 X-33.0625 Y1.8650
G01 X-32.7600 Y1.8650
G01 X-32.7404 Y1.8658
G01 X-32.7306 Y1.8668
G01 X-32.7112 Y1.8698
G01 X-32.6874 Y1.8758
G01 X-32.6643 Y1.8840
G01 X-32.6465 Y1.8923
G01 X-32.6379 Y1.8969
G01 X-32.6211 Y1.9071
G01 X-32.6053 Y1.9187
G01 X-32.5977 Y1.9250
G01 X-32.5832 Y1.9382
G01 X-32.5667 Y1.9564
G01 X-32.5521 Y1.9761
G01 X-32.5419 Y1.9929
G01 X-32.5375 Y2.0012
G01 X-32.5290 Y2.0193
G01 X-32.5208 Y2.0424
G01 X-32.5159 Y2.0614
G01 X-32.5140 Y2.0711
G01 X-32.5110 Y2.0929
G01 X-32.5100 Y2.1150
G01 X-32.5100 Y3.8650
G01 X-32.5108 Y3.8846
G01 X-32.5118 Y3.8944
G01 X-32.5148 Y3.9138
G01 X-32.5208 Y3.9376
G01 X-32.5290 Y3.9607
G01 X-32.5373 Y3.9785
G01 X-32.5419 Y3.9871
G01 X-32.5521 Y4.0039
G01 X-32.5637 Y4.0197
G01 X-32.5700 Y4.0273
G01 X-32.5832 Y4.0418
G01 X-32.6014 Y4.0583
G01 X-32.6171 Y4.0700
G01 X-32.6253 Y4.0755
G01 X-32.6422 Y4.0855
G01 X-32.6598 Y4.0940
G01 X-32.6666 Y4.0969
G01 X-32.6850 Y4.1035
G01 X-32.7064 Y4.1091
G01 X-32.7161 Y4.1110
G01 X-32.7355 Y4.1138
G01 X-32.7575 Y4.1150
G01 X-33.0600 Y4.1150
G01 X-33.0845 Y4.1138
G01 X-33.1039 Y4.1110
G01 X-33.1112 Y4.1097
G01 X-33.1278 Y4.1055
G01 X-33.1372 Y4.1027
G01 X-33.1557 Y4.0960
G01 X-33.1778 Y4.0855
G01 X-33.1989 Y4.0729
G01 X-33.2147 Y4.0613
G01 X-33.2223 Y4.0550
G01 X-33.2350 Y4.0435
G01 X-33.2402 Y4.0382
G01 X-33.2533 Y4.0236
G01 X-33.2679 Y4.0039
G01 X-33.2805 Y3.9828
G01 X-33.2890 Y3.9652
G01 X-33.2919 Y3.9584
G01 X-33.2977 Y3.9422
G01 X-33.3005 Y3.9328
G00 Z2.0000
G00 X-34.5705 Y3.9328
G01 F20.00
G01 Z0.0000
G01 F120.00
G01 X-34.5752 Y3.9138
G01 X-34.5782 Y3.8944
G01 X-34.5792 Y3.8846
G01 X-34.5800 Y3.8650
G01 X-34.5800 Y2.1150
G01 X-34.5792 Y2.0954
G01 X-34.5782 Y2.0856
G01 X-34.5752 Y2.0662
G01 X-34.5692 Y2.0424
G01 X-34.5610 Y2.0193
G01 X-34.5527 Y2.0015
G01 X-34.5481 Y1.9929
G01 X-34.5379 Y1.9761
G01 X-34.5263 Y1.9603
G01 X-34.5215 Y1.9544
G01 X-34.5068 Y1.9382
G01 X-34.4923 Y1.9250
G01 X-34.4847 Y1.9187
G01 X-34.4689 Y1.9071
G01 X-34.4521 Y1.8969
G01 X-34.4438 Y1.8925
G01 X-34.4257 Y1.8840
G01 X-34.4002 Y1.8751
G01 X-34.3788 Y1.8698
G01 X-34.3594 Y1.8668
G01 X-34.3521 Y1.8660
G01 X-34.3325 Y1.8650
G01 X-34.0300 Y1.8650
G01 X-34.0104 Y1.8658
G01 X-34.0006 Y1.8668
G01 X-33.9812 Y1.8698
G01 X-33.9574 Y1.8758
G01 X-33.9343 Y1.8840
G01 X-33.9165 Y1.8923
G01 X-33.9079 Y1.8969
G01 X-33.8911 Y1.9071
G01 X-33.8753 Y1.9187
G01 X-33.8677 Y1.9250
G01 X-33.8532 Y1.9382
G01 X-33.8367 Y1.9564
G01 X-33.8221 Y1.9761
G01 X-33.8119 Y1.9929
G01 X-33.8075 Y2.0012
G01 X-33.7990 Y2.0193
G01 X-33.7908 Y2.0424
G01 X-33.7859 Y2.0614
G01 X-33.7840 Y2.0711
G01 X-33.7810 Y2.0929
G01 X-33.7800 Y2.1150
G01 X-33.7800 Y3.8650
G01 X-33.7808 Y3.8846
G01 X-33.7818 Y3.8944
G01 X-33.7848 Y3.9138
G01 X-33.7908 Y3.9376
G01 X-33.7990 Y3.9607
G01 X-33.8073 Y3.9785
G01 X-33.8119 Y3.9871
G01 X-33.8221 Y4.0039
G01 X-33.8337 Y4.0197
G01 X-33.8400 Y4.0273
G01 X-33.8532 Y4.0418
G01 X-33.8714 Y4.0583
G01 X-33.8871 Y4.0700
G01 X-33.8953 Y4.0755
G01 X-33.9122 Y4.0855
G01 X-33.9298 Y4.0940
G01 X-33.9366 Y4.0969
G01 X-33.9550 Y4.1035
G01 X-33.9764 Y4.1091
G01 X-33.9861 Y4.1110
G01 X-34.0055 Y4.1138
G01 X-34.0275 Y4.1150
G01 X-34.3300 Y4.1150
G01 X-34.3545 Y4.1138
G01 X-34.3739 Y4.1110
G01 X-34.3812 Y4.1097
G01 X-34.3978 Y4.1055
G01 X-34.4072 Y4.1027
G01 X-34.4257 Y4.0960
G01 X-34.4478 Y4.0855
G01 X-34.4689 Y4.0729
G01 X-34.4847 Y4.0613
G01 X-34.4923 Y4.0550
G01 X-34.5050 Y4.0435
G01 X-34.5102 Y4.0382
G01 X-34.5233 Y4.0236
G01 X-34.5379 Y4.0039
G01 X-34.5505 Y3.9828
G01 X-34.5590 Y3.9652
G01 X-34.5619 Y3.9584
G01 X-34.5677 Y3.9422
G01 X-34.5705 Y3.9328
G00 Z2.0000
G00 X-35.8405 Y3.9328
G01 F20.00
G01 Z0.0000
G01 F120.00
G01 X-35.8452 Y3.9138
G01 X-35.8482 Y3.8944
G01 X-35.8492 Y3.8846
G01 X-35.8500 Y3.8650
G01 X-35.8500 Y2.1150
G01 X-35.8492 Y2.0954
G01 X-35.8482 Y2.0856
G01 X-35.8452 Y2.0662
G01 X-35.8392 Y2.0424
G01 X-35.8310 Y2.0193
G01 X-35.8227 Y2.0015
G01 X-35.8181 Y1.9929
G01 X-35.8079 Y1.9761
G01 X-35.7963 Y1.9603
G01 X-35.7915 Y1.9544
G01 X-35.7768 Y1.9382
G01 X-35.7623 Y1.9250
G01 X-35.7547 Y1.9187
G01 X-35.7389 Y1.9071
G01 X-35.7221 Y1.8969
G01 X-35.7138 Y1.8925
G01 X-35.6957 Y1.8840
G01 X-35.6702 Y1.8751
G01 X-35.6488 Y1.8698
G01 X-35.6294 Y1.8668
G01 X-35.6221 Y1.8660
G01 X-35.6025 Y1.8650
G01 X-35.3000 Y1.8650
G01 X-35.2804 Y1.8658
G01 X-35.2706 Y1.8668
G01 X-35.2512 Y1.8698
G01 X-35.2274 Y1.8758
G01 X-35.2043 Y1.8840
G01 X-35.1865 Y1.8923
G01 X-35.1779 Y1.8969
G01 X-35.1611 Y1.9071
G01 X-35.1453 Y1.9187
G01 X-35.1377 Y1.9250
G01 X-35.1232 Y1.9382
G01 X-35.1067 Y1.9564
G01 X-35.0921 Y1.9761
G01 X-35.0819 Y1.9929
G01 X-35.0775 Y2.0012
G01 X-35.0690 Y2.0193
G01 X-35.0608 Y2.0424
G01 X-35.0559 Y2.0614
G01 X-35.0540 Y2.0711
G01 X-35.0510 Y2.0929
G01 X-35.0500 Y2.1150
G01 X-35.0500 Y3.8650
G01 X-35.0508 Y3.8846
G01 X-35.0518 Y3.8944
G01 X-35.0548 Y3.9138
G01 X-35.0608 Y3.9376
G01 X-35.0690 Y3.9607
G01 X-35.0773 Y3.9785
G01 X-35.0819 Y3.9871
G01 X-35.0921 Y4.0039
G01 X-35.1037 Y4.0197
G01 X-35.1100 Y4.0273
G01 X-35.1232 Y4.0418
G01 X-35.1414 Y4.0583
G01 X-35.1571 Y4.0700
G01 X-35.1653 Y4.0755
G01 X-35.1822 Y4.0855
G01 X-35.1998 Y4.0940
G01 X-35.2066 Y4.0969
G01 X-35.2250 Y4.1035
G01 X-35.2464 Y4.1091
G01 X-35.2561 Y4.1110
G01 X-35.2755 Y4.1138
G01 X-35.2975 Y4.1150
G01 X-35.6000 Y4.1150
G01 X-35.6245 Y4.1138
G01 X-35.6439 Y4.1110
G01 X-35.6512 Y4.1097
G01 X-35.6678 Y4.1055
G01 X-35.6772 Y4.1027
G01 X-35.6957 Y4.0960
G01 X-35.7178 Y4.0855
G01 X-35.7389 Y4.0729
G01 X-35.7547 Y4.0613
G01 X-35.7623 Y4.0550
G01 X-35.7750 Y4.0435
G01 X-35.7802 Y4.0382
G01 X-35.7933 Y4.0236
G01 X-35.8079 Y4.0039
G01 X-35.8205 Y3.9828
G01 X-35.8290 Y3.9652
G01 X-35.8319 Y3.9584
G01 X-35.8377 Y3.9422
G01 X-35.8405 Y3.9328
G00 Z2.0000
G00 X-37.1105 Y3.9328
G01 F20.00
G01 Z0.0000
G01 F120.00
G01 X-37.1152 Y3.9138
G01 X-37.1182 Y3.8944
G01 X-37.1192 Y3.8846
G01 X-37.1200 Y3.8650
G01 X-37.1200 Y2.1150
G01 X-37.1192 Y2.0954
G01 X-37.1182 Y2.0856
G01 X-37.1152 Y2.0662
G01 X-37.1092 Y2.0424
G01 X-37.1010 Y2.0193
G01 X-37.0927 Y2.0015
G01 X-37.0881 Y1.9929
G01 X-37.0779 Y1.9761
G01 X-37.0663 Y1.9603
G01 X-37.0615 Y1.9544
G01 X-37.0468 Y1.9382
G01 X-37.0323 Y1.9250
G01 X-37.0247 Y1.9187
G01 X-37.0089 Y1.9071
G01 X-36.9921 Y1.8969
G01 X-36.9838 Y1.8925
G01 X-36.9657 Y1.8840
G01 X-36.9402 Y1.8751
G01 X-36.9188 Y1.8698
G01 X-36.8994 Y1.8668
G01 X-36.8921 Y1.8660
G01 X-36.8725 Y1.8650
G01 X-36.5700 Y1.8650
G01 X-36.5504 Y1.8658
G01 X-36.5406 Y1.8668
G01 X-36.5212 Y1.8698
G01 X-36.4974 Y1.8758
G01 X-36.4743 Y1.8840
G01 X-36.4565 Y1.8923
G01 X-36.4479 Y1.8969
G01 X-36.4311 Y1.9071
G01 X-36.4153 Y1.9187
G01 X-36.4077 Y1.9250
G01 X-36.3932 Y1.9382
G01 X-36.3767 Y1.9564
G01 X-36.3621 Y1.9761
G01 X-36.3519 Y1.9929
G01 X-36.3475 Y2.0012
G01 X-36.3390 Y2.0193
G01 X-36.3308 Y2.0424
G01 X-36.3259 Y2.0614
G01 X-36.3240 Y2.0711
G01 X-36.3210 Y2.0929
G01 X-36.3200 Y2.1150
G01 X-36.3200 Y3.8650
G01 X-36.3208 Y3.8846
G01 X-36.3218 Y3.8944
G01 X-36.3248 Y3.9138
G01 X-36.3308 Y3.9376
G01 X-36.3390 Y3.9607
G01 X-36.3473 Y3.9785
G01 X-36.3519 Y3.9871
G01 X-36.3621 Y4.0039
G01 X-36.3737 Y4.0197
G01 X-36.3800 Y4.0273
G01 X-36.3932 Y4.0418
G01 X-36.4114 Y4.0583
G01 X-36.4271 Y4.0700
G01 X-36.4353 Y4.0755
G01 X-36.4522 Y4.0855
G01 X-36.4698 Y4.0940
G01 X-36.4766 Y4.0969
G01 X-36.4950 Y4.1035
G01 X-36.5164 Y4.1091
G01 X-36.5261 Y4.1110
G01 X-36.5455 Y4.1138
G01 X-36.5675 Y4.1150
G01 X-36.8700 Y4.1150
G01 X-36.8945 Y4.1138
G01 X-36.9139 Y4.1110
G01 X-36.9212 Y4.1097
G01 X-36.9378 Y4.1055
G01 X-36.9472 Y4.1027
G01 X-36.9657 Y4.0960
G01 X-36.9878 Y4.0855
G01 X-37.0089 Y4.0729
G01 X-37.0247 Y4.0613
G01 X-37.0323 Y4.0550
G01 X-37.0450 Y4.0435
G01 X-37.0502 Y4.0382
G01 X-37.0633 Y4.0236
G01 X-37.0779 Y4.0039
G01 X-37.0905 Y3.9828
G01 X-37.0990 Y3.9652
G01 X-37.1019 Y3.9584
G01 X-37.1077 Y3.9422
G01 X-37.1105 Y3.9328
G00 Z2.0000
G00 X-38.3805 Y3.9328
G01 F20.00
G01 Z0.0000
G01 F120.00
G01 X-38.3852 Y3.9138
G01 X-38.3882 Y3.8944
G01 X-38.3892 Y3.8846
G01 X-38.3900 Y3.8650
G01 X-38.3900 Y2.1150
G01 X-38.3892 Y2.0954
G01 X-38.3882 Y2.0856
G01 X-38.3852 Y2.0662
G01 X-38.3792 Y2.0424
G01 X-38.3710 Y2.0193
G01 X-38.3627 Y2.0015
G01 X-38.3581 Y1.9929
G01 X-38.3479 Y1.9761
G01 X-38.3363 Y1.9603
G01 X-38.3315 Y1.9544
G01 X-38.3168 Y1.9382
G01 X-38.3023 Y1.9250
G01 X-38.2947 Y1.9187
G01 X-38.2789 Y1.9071
G01 X-38.2621 Y1.8969
G01 X-38.2538 Y1.8925
G01 X-38.2357 Y1.8840
G01 X-38.2102 Y1.8751
G01 X-38.1888 Y1.8698
G01 X-38.1694 Y1.8668
G01 X-38.1621 Y1.8660
G01 X-38.1425 Y1.8650
G01 X-37.8400 Y1.8650
G01 X-37.8204 Y1.8658
G01 X-37.8106 Y1.8668
G01 X-37.7912 Y1.8698
G01 X-37.7674 Y1.8758
G01 X-37.7443 Y1.8840
G01 X-37.7265 Y1.8923
G01 X-37.7179 Y1.8969
G01 X-37.7011 Y1.9071
G01 X-37.6853 Y1.9187
G01 X-37.6777 Y1.9250
G01 X-37.6632 Y1.9382
G01 X-37.6467 Y1.9564
G01 X-37.6321 Y1.9761
G01 X-37.6219 Y1.9929
G01 X-37.6175 Y2.0012
G01 X-37.6090 Y2.0193
G01 X-37.6008 Y2.0424
G01 X-37.5959 Y2.0614
G01 X-37.5940 Y2.0711
G01 X-37.5910 Y2.0929
G01 X-37.5900 Y2.1150
G01 X-37.5900 Y3.8650
G01 X-37.5908 Y3.8846
G01 X-37.5918 Y3.8944
G01 X-37.5948 Y3.9138
G01 X-37.6008 Y3.9376
G01 X-37.6090 Y3.9607
G01 X-37.6173 Y3.9785
G01 X-37.6219 Y3.9871
G01 X-37.6321 Y4.0039
G01 X-37.6437 Y4.0197
G01 X-37.6500 Y4.0273
G01 X-37.6632 Y4.0418
G01 X-37.6814 Y4.0583
G01 X-37.6971 Y4.0700
G01 X-37.7053 Y4.0755
G01 X-37.7222 Y4.0855
G01 X-37.7398 Y4.0940
G01 X-37.7466 Y4.0969
G01 X-37.7650 Y4.1035
G01 X-37.7864 Y4.1091
G01 X-37.7961 Y4.1110
G01 X-37.8155 Y4.1138
G01 X-37.8375 Y4.1150
G01 X-38.1400 Y4.1150
G01 X-38.1645 Y4.1138
G01 X-38.1839 Y4.1110
G01 X-38.1912 Y4.1097
G01 X-38.2078 Y4.1055
G01 X-38.2172 Y4.1027
G01 X-38.2357 Y4.0960
G01 X-38.2578 Y4.0855
G01 X-38.2789 Y4.0729
G01 X-38.2947 Y4.0613
G01 X-38.3023 Y4.0550
G01 X-38.3150 Y4.0435
G01 X-38.3202 Y4.0382
G01 X-38.3333 Y4.0236
G01 X-38.3479 Y4.0039
G01 X-38.3605 Y3.9828
G01 X-38.3690 Y3.9652
G01 X-38.3719 Y3.9584
G01 X-38.3777 Y3.9422
G01 X-38.3805 Y3.9328
G00 Z2.0000
G00 X-39.6505 Y3.9328
G01 F20.00
G01 Z0.0000
G01 F120.00
G01 X-39.6552 Y3.9138
G01 X-39.6582 Y3.8944
G01 X-39.6592 Y3.8846
G01 X-39.6600 Y3.8650
G01 X-39.6600 Y2.1150
G01 X-39.6592 Y2.0954
G01 X-39.6582 Y2.0856
G01 X-39.6552 Y2.0662
G01 X-39.6492 Y2.0424
G01 X-39.6410 Y2.0193
G01 X-39.6327 Y2.0015
G01 X-39.6281 Y1.9929
G01 X-39.6179 Y1.9761
G01 X-39.6063 Y1.9603
G01 X-39.6015 Y1.9544
G01 X-39.5868 Y1.9382
G01 X-39.5723 Y1.9250
G01 X-39.5647 Y1.9187
G01 X-39.5489 Y1.9071
G01 X-39.5321 Y1.8969
G01 X-39.5238 Y1.8925
G01 X-39.5057 Y1.8840
G01 X-39.4802 Y1.8751
G01 X-39.4588 Y1.8698
G01 X-39.4394 Y1.8668
G01 X-39.4321 Y1.8660
G01 X-39.4125 Y1.8650
G01 X-39.1100 Y1.8650
G01 X-39.0904 Y1.8658
G01 X-39.0806 Y1.8668
G01 X-39.0612 Y1.8698
G01 X-39.0374 Y1.8758
G01 X-39.0143 Y1.8840
G01 X-38.9965 Y1.8923
G01 X-38.9879 Y1.8969
G01 X-38.9711 Y1.9071
G01 X-38.9553 Y1.9187
G01 X-38.9477 Y1.9250
G01 X-38.9332 Y1.9382
G01 X-38.9167 Y1.9564
G01 X-38.9021 Y1.9761
G01 X-38.8919 Y1.9929
G01 X-38.8875 Y2.0012
G01 X-38.8790 Y2.0193
G01 X-38.8708 Y2.0424
G01 X-38.8659 Y2.0614
G01 X-38.8640 Y2.0711
G01 X-38.8610 Y2.0929
G01 X-38.8600 Y2.1150
G01 X-38.8600 Y3.8650
G01 X-38.8608 Y3.8846
G01 X-38.8618 Y3.8944
G01 X-38.8648 Y3.9138
G01 X-38.8708 Y3.9376
G01 X-38.8790 Y3.9607
G01 X-38.8873 Y3.9785
G01 X-38.8919 Y3.9871
G01 X-38.9021 Y4.0039
G01 X-38.9137 Y4.0197
G01 X-38.9200 Y4.0273
G01 X-38.9332 Y4.0418
G01 X-38.9514 Y4.0583
G01 X-38.9671 Y4.0700
G01 X-38.9753 Y4.0755
G01 X-38.9922 Y4.0855
G01 X-39.0098 Y4.0940
G01 X-39.0166 Y4.0969
G01 X-39.0350 Y4.1035
G01 X-39.0564 Y4.1091
G01 X-39.0661 Y4.1110
G01 X-39.0855 Y4.1138
G01 X-39.1075 Y4.1150
G01 X-39.4100 Y4.1150
G01 X-39.4345 Y4.1138
G01 X-39.4539 Y4.1110
G01 X-39.4612 Y4.1097
G01 X-39.4778 Y4.1055
G01 X-39.4872 Y4.1027
G01 X-39.5057 Y4.0960
G01 X-39.5278 Y4.0855
G01 X-39.5489 Y4.0729
G01 X-39.5647 Y4.0613
G01 X-39.5723 Y4.0550
G01 X-39.5850 Y4.0435
G01 X-39.5902 Y4.0382
G01 X-39.6033 Y4.0236
G01 X-39.6179 Y4.0039
G01 X-39.6305 Y3.9828
G01 X-39.6390 Y3.9652
G01 X-39.6419 Y3.9584
G01 X-39.6477 Y3.9422
G01 X-39.6505 Y3.9328
G00 Z2.0000
G00 X-39.9605 Y2.0532
G01 F20.00
G01 Z0.0000
G01 F120.00
G01 X-39.9587 Y2.0305
G01 X-39.9192 Y1.8946
G01 X-39.8484 Y1.7749
G01 X-39.7501 Y1.6766
G01 X-39.6304 Y1.6058
G01 X-39.4945 Y1.5663
G01 X-39.4718 Y1.5645
G01 X-39.0482 Y1.5645
G01 X-39.0255 Y1.5663
G01 X-38.8896 Y1.6058
G01 X-38.7645 Y1.6798
G01 X-38.7552 Y1.6864
G01 X-38.7467 Y1.6912
G01 X-38.7377 Y1.6951
G01 X-38.7269 Y1.6985
G01 X-38.6972 Y1.7148
G01 X-38.6858 Y1.7197
G01 X-38.6764 Y1.7227
G01 X-38.6691 Y1.7243
G01 X-38.6592 Y1.7255
G01 X-38.6518 Y1.7258
G01 X-38.6443 Y1.7256
G01 X-38.5722 Y1.7204
G01 X-38.5598 Y1.7185
G01 X-38.5478 Y1.7150
G01 X-38.5408 Y1.7122
G01 X-38.5341 Y1.7088
G01 X-38.5121 Y1.6950
G01 X-38.5033 Y1.6912
G01 X-38.4969 Y1.6876
G01 X-38.4856 Y1.6798
G01 X-38.3604 Y1.6058
G01 X-38.2245 Y1.5663
G01 X-38.2018 Y1.5645
G01 X-37.7782 Y1.5645
G01 X-37.7555 Y1.5663
G01 X-37.6196 Y1.6058
G01 X-37.4945 Y1.6798
G01 X-37.4852 Y1.6864
G01 X-37.4767 Y1.6912
G01 X-37.4677 Y1.6951
G01 X-37.4569 Y1.6985
G01 X-37.4272 Y1.7148
G01 X-37.4158 Y1.7197
G01 X-37.4064 Y1.7227
G01 X-37.3991 Y1.7243
G01 X-37.3892 Y1.7255
G01 X-37.3818 Y1.7258
G01 X-37.3743 Y1.7256
G01 X-37.3022 Y1.7204
G01 X-37.2898 Y1.7185
G01 X-37.2778 Y1.7150
G01 X-37.2708 Y1.7122
G01 X-37.2641 Y1.7088
G01 X-37.2421 Y1.6950
G01 X-37.2333 Y1.6912
G01 X-37.2269 Y1.6876
G01 X-37.2156 Y1.6798
G01 X-37.0904 Y1.6058
G01 X-36.9545 Y1.5663
G01 X-36.9318 Y1.5645
G01 X-36.5082 Y1.5645
G01 X-36.4855 Y1.5663
G01 X-36.3496 Y1.6058
G01 X-36.2245 Y1.6798
G01 X-36.2152 Y1.6864
G01 X-36.2067 Y1.6912
G01 X-36.1977 Y1.6951
G01 X-36.1869 Y1.6985
G01 X-36.1572 Y1.7148
G01 X-36.1458 Y1.7197
G01 X-36.1364 Y1.7227
G01 X-36.1291 Y1.7243
G01 X-36.1192 Y1.7255
G01 X-36.1118 Y1.7258
G01 X-36.1043 Y1.7256
G01 X-36.0322 Y1.7204
G01 X-36.0198 Y1.7185
G01 X-36.0078 Y1.7150
G01 X-36.0008 Y1.7122
G01 X-35.9941 Y1.7088
G01 X-35.9721 Y1.6950
G01 X-35.9633 Y1.6912
G01 X-35.9569 Y1.6876
G01 X-35.9456 Y1.6798
G01 X-35.8204 Y1.6058
G01 X-35.6845 Y1.5663
G01 X-35.6618 Y1.5645
G01 X-35.2382 Y1.5645
G01 X-35.2155 Y1.5663
G01 X-35.0796 Y1.6058
G01 X-34.9545 Y1.6798
G01 X-34.9452 Y1.6864
G01 X-34.9367 Y1.6912
G01 X-34.9277 Y1.6951
G01 X-34.9169 Y1.6985
G01 X-34.8872 Y1.7148
G01 X-34.8758 Y1.7197
G01 X-34.8664 Y1.7227
G01 X-34.8591 Y1.7243
G01 X-34.8492 Y1.7255
G01 X-34.8418 Y1.7258
G01 X-34.8343 Y1.7256
G01 X-34.7622 Y1.7204
G01 X-34.7498 Y1.7185
G01 X-34.7378 Y1.7150
G01 X-34.7308 Y1.7122
G01 X-34.7241 Y1.7088
G01 X-34.7021 Y1.6950
G01 X-34.6933 Y1.6912
G01 X-34.6869 Y1.6876
G01 X-34.6756 Y1.6798
G01 X-34.5504 Y1.6058
G01 X-34.4145 Y1.5663
G01 X-34.3918 Y1.5645
G01 X-33.9682 Y1.5645
G01 X-33.9455 Y1.5663
G01 X-33.8096 Y1.6058
G01 X-33.6845 Y1.6798
G01 X-33.6752 Y1.6864
G01 X-33.6667 Y1.6912
G01 X-33.6577 Y1.6951
G01 X-33.6469 Y1.6985
G01 X-33.6172 Y1.7148
G01 X-33.6058 Y1.7197
G01 X-33.5964 Y1.7227
G01 X-33.5891 Y1.7243
G01 X-33.5792 Y1.7255
G01 X-33.5718 Y1.7258
G01 X-33.5643 Y1.7256
G01 X-33.4922 Y1.7204
G01 X-33.4798 Y1.7185
G01 X-33.4678 Y1.7150
G01 X-33.4608 Y1.7122
G01 X-33.4541 Y1.7088
G01 X-33.4321 Y1.6950
G01 X-33.4233 Y1.6912
G01 X-33.4169 Y1.6876
G01 X-33.4056 Y1.6798
G01 X-33.2804 Y1.6058
G01 X-33.1445 Y1.5663
G01 X-33.1218 Y1.5645
G01 X-32.6982 Y1.5645
G01 X-32.6755 Y1.5663
G01 X-32.5396 Y1.6058
G01 X-32.4145 Y1.6798
G01 X-32.4052 Y1.6864
G01 X-32.3967 Y1.6912
G01 X-32.3877 Y1.6951
G01 X-32.3769 Y1.6985
G01 X-32.3472 Y1.7148
G01 X-32.3358 Y1.7197
G01 X-32.3264 Y1.7227
G01 X-32.3191 Y1.7243
G01 X-32.3092 Y1.7255
G01 X-32.3018 Y1.7258
G01 X-32.2943 Y1.7256
G01 X-32.2222 Y1.7204
G01 X-32.2098 Y1.7185
G01 X-32.1978 Y1.7150
G01 X-32.1908 Y1.7122
G01 X-32.1841 Y1.7088
G01 X-32.1621 Y1.6950
G01 X-32.1533 Y1.6912
G01 X-32.1469 Y1.6876
G01 X-32.1356 Y1.6798
G01 X-32.0104 Y1.6058
G01 X-31.8745 Y1.5663
G01 X-31.8518 Y1.5645
G01 X-31.4282 Y1.5645
G01 X-31.4055 Y1.5663
G01 X-31.2696 Y1.6058
G01 X-31.1445 Y1.6798
G01 X-31.1352 Y1.6864
G01 X-31.1267 Y1.6912
G01 X-31.1177 Y1.6951
G01 X-31.1069 Y1.6985
G01 X-31.0772 Y1.7148
G01 X-31.0658 Y1.7197
G01 X-31.0587 Y1.7220
G01 X-31.0491 Y1.7243
G01 X-31.0417 Y1.7253
G01 X-31.0318 Y1.7258
G01 X-31.0243 Y1.7256
G01 X-30.9522 Y1.7204
G01 X-30.9398 Y1.7185
G01 X-30.9278 Y1.7150
G01 X-30.9208 Y1.7122
G01 X-30.9141 Y1.7088
G01 X-30.8921 Y1.6950
G01 X-30.8833 Y1.6912
G01 X-30.8769 Y1.6876
G01 X-30.8656 Y1.6798
G01 X-30.7404 Y1.6058
G01 X-30.6045 Y1.5663
G01 X-30.5818 Y1.5645
G01 X-30.1582 Y1.5645
G01 X-30.1355 Y1.5663
G01 X-29.9996 Y1.6058
G01 X-29.8745 Y1.6798
G01 X-29.8652 Y1.6864
G01 X-29.8567 Y1.6912
G01 X-29.8477 Y1.6951
G01 X-29.8369 Y1.6985
G01 X-29.8072 Y1.7148
G01 X-29.7958 Y1.7197
G01 X-29.7887 Y1.7220
G01 X-29.7791 Y1.7243
G01 X-29.7717 Y1.7253
G01 X-29.7618 Y1.7258
G01 X-29.7543 Y1.7256
G01 X-29.6822 Y1.7204
G01 X-29.6698 Y1.7185
G01 X-29.6578 Y1.7150
G01 X-29.6508 Y1.7122
G01 X-29.6441 Y1.7088
G01 X-29.6221 Y1.6950
G01 X-29.6133 Y1.6912
G01 X-29.6069 Y1.6876
G01 X-29.5956 Y1.6798
G01 X-29.4704 Y1.6058
G01 X-29.3345 Y1.5663
G01 X-29.3118 Y1.5645
G01 X-28.8882 Y1.5645
G01 X-28.8655 Y1.5663
G01 X-28.7296 Y1.6058
G01 X-28.6099 Y1.6766
G01 X-28.5116 Y1.7749
G01 X-28.4408 Y1.8946
G01 X-28.4013 Y2.0305
G01 X-28.3995 Y2.0532
G01 X-28.3995 Y3.9268
G01 X-28.4013 Y3.9495
G01 X-28.4408 Y4.0854
G01 X-28.5116 Y4.2051
G01 X-28.6099 Y4.3034
G01 X-28.7296 Y4.3742
G01 X-28.8655 Y4.4137
G01 X-28.8882 Y4.4155
G01 X-29.3118 Y4.4155
G01 X-29.3345 Y4.4137
G01 X-29.4704 Y4.3742
G01 X-29.5955 Y4.3002
G01 X-29.6048 Y4.2937
G01 X-29.6133 Y4.2888
G01 X-29.6223 Y4.2849
G01 X-29.6331 Y4.2815
G01 X-29.6629 Y4.2652
G01 X-29.6743 Y4.2602
G01 X-29.6814 Y4.2579
G01 X-29.6910 Y4.2557
G01 X-29.7009 Y4.2544
G01 X-29.7083 Y4.2541
G01 X-29.7158 Y4.2544
G01 X-29.7880 Y4.2596
G01 X-29.8003 Y4.2616
G01 X-29.8123 Y4.2651
G01 X-29.8192 Y4.2679
G01 X-29.8259 Y4.2712
G01 X-29.8480 Y4.2850
G01 X-29.8567 Y4.2888
G01 X-29.8631 Y4.2924
G01 X-29.8745 Y4.3002
G01 X-29.9996 Y4.3742
G01 X-30.1355 Y4.4137
G01 X-30.1582 Y4.4155
G01 X-30.5818 Y4.4155
G01 X-30.6045 Y4.4137
G01 X-30.7404 Y4.3742
G01 X-30.8655 Y4.3002
G01 X-30.8748 Y4.2937
G01 X-30.8833 Y4.2888
G01 X-30.8923 Y4.2849
G01 X-30.9031 Y4.2815
G01 X-30.9329 Y4.2652
G01 X-30.9443 Y4.2602
G01 X-30.9514 Y4.2579
G01 X-30.9610 Y4.2557
G01 X-30.9709 Y4.2544
G01 X-30.9783 Y4.2541
G01 X-30.9858 Y4.2544
G01 X-31.0580 Y4.2596
G01 X-31.0703 Y4.2616
G01 X-31.0823 Y4.2651
G01 X-31.0892 Y4.2679
G01 X-31.0959 Y4.2712
G01 X-31.1180 Y4.2850
G01 X-31.1267 Y4.2888
G01 X-31.1331 Y4.2924
G01 X-31.1445 Y4.3002
G01 X-31.2696 Y4.3742
G01 X-31.4055 Y4.4137
G01 X-31.4282 Y4.4155
G01 X-31.8518 Y4.4155
G01 X-31.8745 Y4.4137
G01 X-32.0104 Y4.3742
G01 X-32.1355 Y4.3002
G01 X-32.1448 Y4.2937
G01 X-32.1533 Y4.2888
G01 X-32.1623 Y4.2849
G01 X-32.1731 Y4.2815
G01 X-32.2029 Y4.2652
G01 X-32.2143 Y4.2602
G01 X-32.2238 Y4.2573
G01 X-32.2310 Y4.2557
G01 X-32.2409 Y4.2544
G01 X-32.2483 Y4.2541
G01 X-32.2558 Y4.2544
G01 X-32.3280 Y4.2596
G01 X-32.3403 Y4.2616
G01 X-32.3523 Y4.2651
G01 X-32.3592 Y4.2679
G01 X-32.3659 Y4.2712
G01 X-32.3880 Y4.2850
G01 X-32.3967 Y4.2888
G01 X-32.4031 Y4.2924
G01 X-32.4145 Y4.3002
G01 X-32.5396 Y4.3742
G01 X-32.6755 Y4.4137
G01 X-32.6982 Y4.4155
G01 X-33.1218 Y4.4155
G01 X-33.1445 Y4.4137
G01 X-33.2804 Y4.3742
G01 X-33.4055 Y4.3002
G01 X-33.4148 Y4.2937
G01 X-33.4233 Y4.2888
G01 X-33.4323 Y4.2849
G01 X-33.4431 Y4.2815
G01 X-33.4729 Y4.2652
G01 X-33.4843 Y4.2602
G01 X-33.4914 Y4.2579
G01 X-33.5010 Y4.2557
G01 X-33.5109 Y4.2544
G01 X-33.5183 Y4.2541
G01 X-33.5258 Y4.2544
G01 X-33.5980 Y4.2596
G01 X-33.6103 Y4.2616
G01 X-33.6223 Y4.2651
G01 X-33.6292 Y4.2679
G01 X-33.6359 Y4.2712
G01 X-33.6580 Y4.2850
G01 X-33.6667 Y4.2888
G01 X-33.6731 Y4.2924
G01 X-33.6845 Y4.3002
G01 X-33.8096 Y4.3742
G01 X-33.9455 Y4.4137
G01 X-33.9682 Y4.4155
G01 X-34.3918 Y4.4155
G01 X-34.4145 Y4.4137
G01 X-34.5504 Y4.3742
G01 X-34.6755 Y4.3002
G01 X-34.6848 Y4.2937
G01 X-34.6933 Y4.2888
G01 X-34.7023 Y4.2849
G01 X-34.7131 Y4.2815
G01 X-34.7429 Y4.2652
G01 X-34.7543 Y4.2602
G01 X-34.7614 Y4.2579
G01 X-34.7710 Y4.2557
G01 X-34.7809 Y4.2544
G01 X-34.7883 Y4.2541
G01 X-34.7958 Y4.2544
G01 X-34.8680 Y4.2596
G01 X-34.8803 Y4.2616
G01 X-34.8923 Y4.2651
G01 X-34.8992 Y4.2679
G01 X-34.9059 Y4.2712
G01 X-34.9280 Y4.2850
G01 X-34.9367 Y4.2888
G01 X-34.9431 Y4.2924
G01 X-34.9545 Y4.3002
G01 X-35.0796 Y4.3742
G01 X-35.2155 Y4.4137
G01 X-35.2382 Y4.4155
G01 X-35.6618 Y4.4155
G01 X-35.6845 Y4.4137
G01 X-35.8204 Y4.3742
G01 X-35.9455 Y4.3002
G01 X-35.9548 Y4.2937
G01 X-35.9633 Y4.2888
G01 X-35.9723 Y4.2849
G01 X-35.9831 Y4.2815
G01 X-36.0129 Y4.2652
G01 X-36.0243 Y4.2602
G01 X-36.0338 Y4.2573
G01 X-36.0410 Y4.2557
G01 X-36.0509 Y4.2544
G01 X-36.0583 Y4.2541
G01 X-36.0658 Y4.2544
G01 X-36.1380 Y4.2596
G01 X-36.1503 Y4.2616
G01 X-36.1623 Y4.2651
G01 X-36.1692 Y4.2679
G01 X-36.1759 Y4.2712
G01 X-36.1980 Y4.2850
G01 X-36.2067 Y4.2888
G01 X-36.2131 Y4.2924
G01 X-36.2245 Y4.3002
G01 X-36.3496 Y4.3742
G01 X-36.4855 Y4.4137
G01 X-36.5082 Y4.4155
G01 X-36.9318 Y4.4155
G01 X-36.9545 Y4.4137
G01 X-37.0904 Y4.3742
G01 X-37.2155 Y4.3002
G01 X-37.2248 Y4.2937
G01 X-37.2333 Y4.2888
G01 X-37.2423 Y4.2849
G01 X-37.2531 Y4.2815
G01 X-37.2829 Y4.2652
G01 X-37.2943 Y4.2602
G01 X-37.3014 Y4.2579
G01 X-37.3110 Y4.2557
G01 X-37.3209 Y4.2544
G01 X-37.3283 Y4.2541
G01 X-37.3358 Y4.2544
G01 X-37.4080 Y4.2596
G01 X-37.4203 Y4.2616
G01 X-37.4323 Y4.2651
G01 X-37.4392 Y4.2679
G01 X-37.4459 Y4.2712
G01 X-37.4680 Y4.2850
G01 X-37.4767 Y4.2888
G01 X-37.4831 Y4.2924
G01 X-37.4945 Y4.3002
G01 X-37.6196 Y4.3742
G01 X-37.7555 Y4.4137
G01 X-37.7782 Y4.4155
G01 X-38.2018 Y4.4155
G01 X-38.2245 Y4.4137
G01 X-38.3604 Y4.3742
G01 X-38.4855 Y4.3002
G01 X-38.4948 Y4.2937
G01 X-38.5033 Y4.2888
G01 X-38.5123 Y4.2849
G01 X-38.5231 Y4.2815
G01 X-38.5529 Y4.2652
G01 X-38.5643 Y4.2602
G01 X-38.5738 Y4.2573
G01 X-38.5810 Y4.2557
G01 X-38.5909 Y4.2544
G01 X-38.5983 Y4.2541
G01 X-38.6058 Y4.2544
G01 X-38.6780 Y4.2596
G01 X-38.6903 Y4.2616
G01 X-38.7023 Y4.2651
G01 X-38.7092 Y4.2679
G01 X-38.7159 Y4.2712
G01 X-38.7380 Y4.2850
G01 X-38.7467 Y4.2888
G01 X-38.7531 Y4.2924
G01 X-38.7645 Y4.3002
G01 X-38.8896 Y4.3742
G01 X-39.0255 Y4.4137
G01 X-39.0482 Y4.4155
G01 X-39.4718 Y4.4155
G01 X-39.4945 Y4.4137
G01 X-39.6304 Y4.3742
G01 X-39.7501 Y4.3034
G01 X-39.8484 Y4.2051
G01 X-39.9192 Y4.0854
G01 X-39.9587 Y3.9495
G01 X-39.9605 Y3.9268
G01 X-39.9605 Y2.0532
G00 Z2.0000
G00 X-45.9445 Y4.0160
G01 F20.00
G01 Z0.0000
G01 F120.00
G01 X-45.9353 Y3.9906
G01 X-45.9238 Y3.9662
G01 X-45.9192 Y3.9575
G01 X-45.9052 Y3.9344
G01 X-45.8892 Y3.9127
G01 X-45.8830 Y3.9051
G01 X-45.8648 Y3.8852
G01 X-45.8431 Y3.8654
G01 X-45.8196 Y3.8476
G01 X-45.8114 Y3.8421
G01 X-45.7882 Y3.8284
G01 X-45.7639 Y3.8167
G01 X-45.7548 Y3.8130
G01 X-45.7293 Y3.8040
G01 X-45.7032 Y3.7973
G01 X-45.6936 Y3.7954
G01 X-45.6669 Y3.7916
G01 X-45.6350 Y3.7900
G01 X-44.8825 Y3.7900
G01 X-44.8556 Y3.7914
G01 X-44.8483 Y3.7922
G01 X-44.8216 Y3.7962
G01 X-44.7954 Y3.8027
G01 X-44.7868 Y3.8052
G01 X-44.7606 Y3.8147
G01 X-44.7318 Y3.8284
G01 X-44.7044 Y3.8448
G01 X-44.6827 Y3.8608
G01 X-44.6751 Y3.8670
G01 X-44.6552 Y3.8852
G01 X-44.6370 Y3.9051
G01 X-44.6323 Y3.9106
G01 X-44.6176 Y3.9304
G01 X-44.6121 Y3.9386
G01 X-44.5984 Y3.9618
G01 X-44.5847 Y3.9907
G01 X-44.5740 Y4.0207
G01 X-44.5673 Y4.0468
G01 X-44.5654 Y4.0564
G01 X-44.5616 Y4.0831
G01 X-44.5600 Y4.1150
G01 X-44.5600 Y4.5650
G01 X-44.5612 Y4.5920
G01 X-44.5622 Y4.6017
G01 X-44.5662 Y4.6284
G01 X-44.5740 Y4.6593
G01 X-44.5847 Y4.6894
G01 X-44.5984 Y4.7182
G01 X-44.6148 Y4.7456
G01 X-44.6308 Y4.7673
G01 X-44.6370 Y4.7749
G01 X-44.6552 Y4.7948
G01 X-44.6751 Y4.8130
G01 X-44.6827 Y4.8192
G01 X-44.7044 Y4.8352
G01 X-44.7318 Y4.8516
G01 X-44.7561 Y4.8633
G01 X-44.7652 Y4.8670
G01 X-44.7904 Y4.8759
G01 X-44.8168 Y4.8827
G01 X-44.8240 Y4.8842
G01 X-44.8507 Y4.8882
G01 X-44.8850 Y4.8900
G01 X-45.6399 Y4.8899
G01 X-45.6669 Y4.8884
G01 X-45.6936 Y4.8846
G01 X-45.7008 Y4.8832
G01 X-45.7246 Y4.8773
G01 X-45.7340 Y4.8745
G01 X-45.7594 Y4.8653
G01 X-45.7882 Y4.8516
G01 X-45.8156 Y4.8352
G01 X-45.8412 Y4.8162
G01 X-45.8648 Y4.7948
G01 X-45.8830 Y4.7749
G01 X-45.8892 Y4.7673
G01 X-45.9052 Y4.7456
G01 X-45.9192 Y4.7225
G01 X-45.9228 Y4.7160
G01 X-45.9333 Y4.6939
G01 X-45.9370 Y4.6848
G01 X-45.9460 Y4.6593
G01 X-45.9538 Y4.6284
G01 X-45.9584 Y4.5969
G01 X-45.9600 Y4.5650
G01 X-45.9600 Y4.1125
G01 X-45.9584 Y4.0831
G01 X-45.9546 Y4.0564
G01 X-45.9532 Y4.0492
G01 X-45.9473 Y4.0254
G01 X-45.9445 Y4.0160
G00 Z2.0000
G00 X-46.2605 Y4.0718
G01 F20.00
G01 Z0.0000
G01 F120.00
G01 X-46.2520 Y3.9884
G01 X-46.2058 Y3.8489
G01 X-46.1290 Y3.7244
G01 X-46.0256 Y3.6210
G01 X-45.9012 Y3.5442
G01 X-45.7616 Y3.4980
G01 X-45.6783 Y3.4895
G01 X-44.8418 Y3.4895
G01 X-44.7583 Y3.4980
G01 X-44.6189 Y3.5442
G01 X-44.4944 Y3.6210
G01 X-44.3910 Y3.7244
G01 X-44.3142 Y3.8489
G01 X-44.2680 Y3.9884
G01 X-44.2595 Y4.0717
G01 X-44.2595 Y4.6082
G01 X-44.2680 Y4.6917
G01 X-44.3142 Y4.8311
G01 X-44.3910 Y4.9556
G01 X-44.4944 Y5.0590
G01 X-44.6188 Y5.1358
G01 X-44.7583 Y5.1820
G01 X-44.8417 Y5.1905
G01 X-45.6782 Y5.1905
G01 X-45.7617 Y5.1820
G01 X-45.9011 Y5.1358
G01 X-46.0256 Y5.0590
G01 X-46.1290 Y4.9556
G01 X-46.2058 Y4.8312
G01 X-46.2520 Y4.6917
G01 X-46.2605 Y4.6083
G01 X-46.2605 Y4.0718
G00 Z2.0000
G00 X-49.2945 Y4.0160
G01 F20.00
G01 Z0.0000
G01 F120.00
G01 X-49.2853 Y3.9906
G01 X-49.2738 Y3.9662
G01 X-49.2692 Y3.9575
G01 X-49.2552 Y3.9344
G01 X-49.2392 Y3.9127
G01 X-49.2330 Y3.9051
G01 X-49.2148 Y3.8852
G01 X-49.1931 Y3.8654
G01 X-49.1696 Y3.8476
G01 X-49.1614 Y3.8421
G01 X-49.1382 Y3.8284
G01 X-49.1139 Y3.8167
G01 X-49.1048 Y3.8130
G01 X-49.0793 Y3.8040
G01 X-49.0532 Y3.7973
G01 X-49.0436 Y3.7954
G01 X-49.0169 Y3.7916
G01 X-48.9850 Y3.7900
G01 X-48.2325 Y3.7900
G01 X-48.2056 Y3.7914
G01 X-48.1983 Y3.7922
G01 X-48.1716 Y3.7962
G01 X-48.1454 Y3.8027
G01 X-48.1368 Y3.8052
G01 X-48.1106 Y3.8147
G01 X-48.0818 Y3.8284
G01 X-48.0544 Y3.8448
G01 X-48.0327 Y3.8608
G01 X-48.0251 Y3.8670
G01 X-48.0052 Y3.8852
G01 X-47.9870 Y3.9051
G01 X-47.9823 Y3.9106
G01 X-47.9676 Y3.9304
G01 X-47.9621 Y3.9386
G01 X-47.9484 Y3.9618
G01 X-47.9347 Y3.9907
G01 X-47.9240 Y4.0207
G01 X-47.9173 Y4.0468
G01 X-47.9154 Y4.0564
G01 X-47.9116 Y4.0831
G01 X-47.9100 Y4.1150
G01 X-47.9100 Y4.5650
G01 X-47.9112 Y4.5920
G01 X-47.9122 Y4.6017
G01 X-47.9162 Y4.6284
G01 X-47.9240 Y4.6593
G01 X-47.9347 Y4.6894
G01 X-47.9484 Y4.7182
G01 X-47.9648 Y4.7456
G01 X-47.9808 Y4.7673
G01 X-47.9870 Y4.7749
G01 X-48.0052 Y4.7948
G01 X-48.0251 Y4.8130
G01 X-48.0327 Y4.8192
G01 X-48.0544 Y4.8352
G01 X-48.0818 Y4.8516
G01 X-48.1061 Y4.8633
G01 X-48.1152 Y4.8670
G01 X-48.1404 Y4.8759
G01 X-48.1668 Y4.8827
G01 X-48.1740 Y4.8842
G01 X-48.2007 Y4.8882
G01 X-48.2350 Y4.8900
G01 X-48.9899 Y4.8899
G01 X-49.0169 Y4.8884
G01 X-49.0436 Y4.8846
G01 X-49.0508 Y4.8832
G01 X-49.0746 Y4.8773
G01 X-49.0840 Y4.8745
G01 X-49.1094 Y4.8653
G01 X-49.1382 Y4.8516
G01 X-49.1656 Y4.8352
G01 X-49.1912 Y4.8162
G01 X-49.2148 Y4.7948
G01 X-49.2330 Y4.7749
G01 X-49.2392 Y4.7673
G01 X-49.2552 Y4.7456
G01 X-49.2692 Y4.7225
G01 X-49.2728 Y4.7160
G01 X-49.2833 Y4.6939
G01 X-49.2870 Y4.6848
G01 X-49.2960 Y4.6593
G01 X-49.3038 Y4.6284
G01 X-49.3084 Y4.5969
G01 X-49.3100 Y4.5650
G01 X-49.3100 Y4.1125
G01 X-49.3084 Y4.0831
G01 X-49.3046 Y4.0564
G01 X-49.3032 Y4.0492
G01 X-49.2973 Y4.0254
G01 X-49.2945 Y4.0160
G00 Z2.0000
G00 X-49.6105 Y4.0718
G01 F20.00
G01 Z0.0000
G01 F120.00
G01 X-49.6020 Y3.9884
G01 X-49.5558 Y3.8489
G01 X-49.4790 Y3.7244
G01 X-49.3756 Y3.6210
G01 X-49.2512 Y3.5442
G01 X-49.1116 Y3.4980
G01 X-49.0283 Y3.4895
G01 X-48.1918 Y3.4895
G01 X-48.1083 Y3.4980
G01 X-47.9689 Y3.5442
G01 X-47.8444 Y3.6210
G01 X-47.7410 Y3.7244
G01 X-47.6642 Y3.8489
G01 X-47.6180 Y3.9884
G01 X-47.6095 Y4.0717
G01 X-47.6095 Y4.6082
G01 X-47.6180 Y4.6917
G01 X-47.6642 Y4.8311
G01 X-47.7410 Y4.9556
G01 X-47.8444 Y5.0590
G01 X-47.9688 Y5.1358
G01 X-48.1083 Y5.1820
G01 X-48.1917 Y5.1905
G01 X-49.0282 Y5.1905
G01 X-49.1117 Y5.1820
G01 X-49.2511 Y5.1358
G01 X-49.3756 Y5.0590
G01 X-49.4790 Y4.9556
G01 X-49.5558 Y4.8312
G01 X-49.6020 Y4.6917
G01 X-49.6105 Y4.6083
G01 X-49.6105 Y4.0718
G00 Z2.0000
G00 X-52.6445 Y4.0160
G01 F20.00
G01 Z0.0000
G01 F120.00
G01 X-52.6353 Y3.9906
G01 X-52.6238 Y3.9662
G01 X-52.6192 Y3.9575
G01 X-52.6052 Y3.9344
G01 X-52.5892 Y3.9127
G01 X-52.5830 Y3.9051
G01 X-52.5648 Y3.8852
G01 X-52.5431 Y3.8654
G01 X-52.5196 Y3.8476
G01 X-52.5114 Y3.8421
G01 X-52.4882 Y3.8284
G01 X-52.4639 Y3.8167
G01 X-52.4548 Y3.8130
G01 X-52.4293 Y3.8040
G01 X-52.4032 Y3.7973
G01 X-52.3936 Y3.7954
G01 X-52.3669 Y3.7916
G01 X-52.3350 Y3.7900
G01 X-51.5825 Y3.7900
G01 X-51.5556 Y3.7914
G01 X-51.5483 Y3.7922
G01 X-51.5216 Y3.7962
G01 X-51.4954 Y3.8027
G01 X-51.4868 Y3.8052
G01 X-51.4606 Y3.8147
G01 X-51.4318 Y3.8284
G01 X-51.4044 Y3.8448
G01 X-51.3827 Y3.8608
G01 X-51.3751 Y3.8670
G01 X-51.3552 Y3.8852
G01 X-51.3370 Y3.9051
G01 X-51.3323 Y3.9106
G01 X-51.3176 Y3.9304
G01 X-51.3121 Y3.9386
G01 X-51.2984 Y3.9618
G01 X-51.2847 Y3.9907
G01 X-51.2740 Y4.0207
G01 X-51.2673 Y4.0468
G01 X-51.2654 Y4.0564
G01 X-51.2616 Y4.0831
G01 X-51.2600 Y4.1150
G01 X-51.2600 Y4.5650
G01 X-51.2612 Y4.5920
G01 X-51.2622 Y4.6017
G01 X-51.2662 Y4.6284
G01 X-51.2740 Y4.6593
G01 X-51.2847 Y4.6894
G01 X-51.2984 Y4.7182
G01 X-51.3148 Y4.7456
G01 X-51.3308 Y4.7673
G01 X-51.3370 Y4.7749
G01 X-51.3552 Y4.7948
G01 X-51.3751 Y4.8130
G01 X-51.3827 Y4.8192
G01 X-51.4044 Y4.8352
G01 X-51.4318 Y4.8516
G01 X-51.4561 Y4.8633
G01 X-51.4652 Y4.8670
G01 X-51.4904 Y4.8759
G01 X-51.5168 Y4.8827
G01 X-51.5240 Y4.8842
G01 X-51.5507 Y4.8882
G01 X-51.5850 Y4.8900
G01 X-52.3399 Y4.8899
G01 X-52.3669 Y4.8884
G01 X-52.3936 Y4.8846
G01 X-52.4008 Y4.8832
G01 X-52.4246 Y4.8773
G01 X-52.4340 Y4.8745
G01 X-52.4594 Y4.8653
G01 X-52.4882 Y4.8516
G01 X-52.5156 Y4.8352
G01 X-52.5412 Y4.8162
G01 X-52.5648 Y4.7948
G01 X-52.5830 Y4.7749
G01 X-52.5892 Y4.7673
G01 X-52.6052 Y4.7456
G01 X-52.6192 Y4.7225
G01 X-52.6228 Y4.7160
G01 X-52.6333 Y4.6939
G01 X-52.6370 Y4.6848
G01 X-52.6460 Y4.6593
G01 X-52.6538 Y4.6284
G01 X-52.6584 Y4.5969
G01 X-52.6600 Y4.5650
G01 X-52.6600 Y4.1125
G01 X-52.6584 Y4.0831
G01 X-52.6546 Y4.0564
G01 X-52.6532 Y4.0492
G01 X-52.6473 Y4.0254
G01 X-52.6445 Y4.0160
G00 Z2.0000
G00 X-52.9605 Y4.0718
G01 F20.00
G01 Z0.0000
G01 F120.00
G01 X-52.9520 Y3.9884
G01 X-52.9058 Y3.8489
G01 X-52.8290 Y3.7244
G01 X-52.7256 Y3.6210
G01 X-52.6012 Y3.5442
G01 X-52.4616 Y3.4980
G01 X-52.3783 Y3.4895
G01 X-51.5418 Y3.4895
G01 X-51.4583 Y3.4980
G01 X-51.3189 Y3.5442
G01 X-51.1944 Y3.6210
G01 X-51.0910 Y3.7244
G01 X-51.0142 Y3.8489
G01 X-50.9680 Y3.9884
G01 X-50.9595 Y4.0717
G01 X-50.9595 Y4.6082
G01 X-50.9680 Y4.6917
G01 X-51.0142 Y4.8311
G01 X-51.0910 Y4.9556
G01 X-51.1944 Y5.0590
G01 X-51.3188 Y5.1358
G01 X-51.4583 Y5.1820
G01 X-51.5417 Y5.1905
G01 X-52.3782 Y5.1905
G01 X-52.4617 Y5.1820
G01 X-52.6011 Y5.1358
G01 X-52.7256 Y5.0590
G01 X-52.8290 Y4.9556
G01 X-52.9058 Y4.8312
G01 X-52.9520 Y4.6917
G01 X-52.9605 Y4.6083
G01 X-52.9605 Y4.0718
G00 Z2.0000
G00 X-52.6445 Y7.3160
G01 F20.00
G01 Z0.0000
G01 F120.00
G01 X-52.6353 Y7.2906
G01 X-52.6238 Y7.2662
G01 X-52.6192 Y7.2575
G01 X-52.6052 Y7.2344
G01 X-52.5892 Y7.2127
G01 X-52.5830 Y7.2051
G01 X-52.5648 Y7.1852
G01 X-52.5431 Y7.1654
G01 X-52.5196 Y7.1476
G01 X-52.5114 Y7.1421
G01 X-52.4882 Y7.1284
G01 X-52.4639 Y7.1167
G01 X-52.4548 Y7.1130
G01 X-52.4293 Y7.1040
G01 X-52.4032 Y7.0973
G01 X-52.3936 Y7.0954
G01 X-52.3669 Y7.0916
G01 X-52.3350 Y7.0900
G01 X-51.5825 Y7.0900
G01 X-51.5556 Y7.0914
G01 X-51.5483 Y7.0922
G01 X-51.5216 Y7.0962
G01 X-51.4954 Y7.1027
G01 X-51.4868 Y7.1052
G01 X-51.4606 Y7.1147
G01 X-51.4318 Y7.1284
G01 X-51.4044 Y7.1448
G01 X-51.3827 Y7.1608
G01 X-51.3751 Y7.1670
G01 X-51.3552 Y7.1852
G01 X-51.3370 Y7.2051
G01 X-51.3323 Y7.2106
G01 X-51.3176 Y7.2304
G01 X-51.3121 Y7.2386
G01 X-51.2984 Y7.2618
G01 X-51.2847 Y7.2907
G01 X-51.2740 Y7.3207
G01 X-51.2673 Y7.3468
G01 X-51.2654 Y7.3564
G01 X-51.2616 Y7.3831
G01 X-51.2600 Y7.4150
G01 X-51.2600 Y7.8650
G01 X-51.2612 Y7.8920
G01 X-51.2622 Y7.9017
G01 X-51.2662 Y7.9284
G01 X-51.2740 Y7.9593
G01 X-51.2847 Y7.9894
G01 X-51.2984 Y8.0182
G01 X-51.3148 Y8.0456
G01 X-51.3308 Y8.0673
G01 X-51.3370 Y8.0749
G01 X-51.3552 Y8.0948
G01 X-51.3751 Y8.1130
G01 X-51.3827 Y8.1192
G01 X-51.4044 Y8.1352
G01 X-51.4318 Y8.1516
G01 X-51.4561 Y8.1633
G01 X-51.4652 Y8.1670
G01 X-51.4904 Y8.1759
G01 X-51.5168 Y8.1827
G01 X-51.5240 Y8.1842
G01 X-51.5507 Y8.1882
G01 X-51.5850 Y8.1900
G01 X-52.3399 Y8.1899
G01 X-52.3669 Y8.1884
G01 X-52.3936 Y8.1846
G01 X-52.4008 Y8.1832
G01 X-52.4246 Y8.1773
G01 X-52.4340 Y8.1745
G01 X-52.4594 Y8.1653
G01 X-52.4882 Y8.1516
G01 X-52.5156 Y8.1352
G01 X-52.5412 Y8.1162
G01 X-52.5648 Y8.0948
G01 X-52.5830 Y8.0749
G01 X-52.5892 Y8.0673
G01 X-52.6052 Y8.0456
G01 X-52.6192 Y8.0225
G01 X-52.6228 Y8.0160
G01 X-52.6333 Y7.9939
G01 X-52.6370 Y7.9848
G01 X-52.6460 Y7.9593
G01 X-52.6538 Y7.9284
G01 X-52.6584 Y7.8969
G01 X-52.6600 Y7.8650
G01 X-52.6600 Y7.4125
G01 X-52.6584 Y7.3831
G01 X-52.6546 Y7.3564
G01 X-52.6532 Y7.3492
G01 X-52.6473 Y7.3254
G01 X-52.6445 Y7.3160
G00 Z2.0000
G00 X-52.9605 Y7.3718
G01 F20.00
G01 Z0.0000
G01 F120.00
G01 X-52.9520 Y7.2884
G01 X-52.9058 Y7.1489
G01 X-52.8290 Y7.0244
G01 X-52.7256 Y6.9210
G01 X-52.6012 Y6.8442
G01 X-52.4616 Y6.7980
G01 X-52.3783 Y6.7895
G01 X-51.5418 Y6.7895
G01 X-51.4583 Y6.7980
G01 X-51.3189 Y6.8442
G01 X-51.1944 Y6.9210
G01 X-51.0910 Y7.0244
G01 X-51.0142 Y7.1489
G01 X-50.9680 Y7.2884
G01 X-50.9595 Y7.3717
G01 X-50.9595 Y7.9082
G01 X-50.9680 Y7.9917
G01 X-51.0142 Y8.1311
G01 X-51.0910 Y8.2556
G01 X-51.1944 Y8.3590
G01 X-51.3188 Y8.4358
G01 X-51.4583 Y8.4820
G01 X-51.5417 Y8.4905
G01 X-52.3782 Y8.4905
G01 X-52.4617 Y8.4820
G01 X-52.6011 Y8.4358
G01 X-52.7256 Y8.3590
G01 X-52.8290 Y8.2556
G01 X-52.9058 Y8.1312
G01 X-52.9520 Y7.9917
G01 X-52.9605 Y7.9083
G01 X-52.9605 Y7.3718
G00 Z2.0000
G00 X-49.6105 Y7.3718
G01 F20.00
G01 Z0.0000
G01 F120.00
G01 X-49.6020 Y7.2884
G01 X-49.5558 Y7.1489
G01 X-49.4790 Y7.0244
G01 X-49.3756 Y6.9210
G01 X-49.2512 Y6.8442
G01 X-49.1116 Y6.7980
G01 X-49.0283 Y6.7895
G01 X-48.1918 Y6.7895
G01 X-48.1083 Y6.7980
G01 X-47.9689 Y6.8442
G01 X-47.8444 Y6.9210
G01 X-47.7410 Y7.0244
G01 X-47.6642 Y7.1489
G01 X-47.6180 Y7.2884
G01 X-47.6095 Y7.3717
G01 X-47.6095 Y7.9082
G01 X-47.6180 Y7.9917
G01 X-47.6642 Y8.1311
G01 X-47.7410 Y8.2556
G01 X-47.8444 Y8.3590
G01 X-47.9688 Y8.4358
G01 X-48.1083 Y8.4820
G01 X-48.1917 Y8.4905
G01 X-49.0282 Y8.4905
G01 X-49.1117 Y8.4820
G01 X-49.2511 Y8.4358
G01 X-49.3756 Y8.3590
G01 X-49.4790 Y8.2556
G01 X-49.5558 Y8.1312
G01 X-49.6020 Y7.9917
G01 X-49.6105 Y7.9083
G01 X-49.6105 Y7.3718
G00 Z2.0000
G00 X-49.2945 Y7.3160
G01 F20.00
G01 Z0.0000
G01 F120.00
G01 X-49.2853 Y7.2906
G01 X-49.2738 Y7.2662
G01 X-49.2692 Y7.2575
G01 X-49.2552 Y7.2344
G01 X-49.2392 Y7.2127
G01 X-49.2330 Y7.2051
G01 X-49.2148 Y7.1852
G01 X-49.1931 Y7.1654
G01 X-49.1696 Y7.1476
G01 X-49.1614 Y7.1421
G01 X-49.1382 Y7.1284
G01 X-49.1139 Y7.1167
G01 X-49.1048 Y7.1130
G01 X-49.0793 Y7.1040
G01 X-49.0532 Y7.0973
G01 X-49.0436 Y7.0954
G01 X-49.0169 Y7.0916
G01 X-48.9850 Y7.0900
G01 X-48.2325 Y7.0900
G01 X-48.2056 Y7.0914
G01 X-48.1983 Y7.0922
G01 X-48.1716 Y7.0962
G01 X-48.1454 Y7.1027
G01 X-48.1368 Y7.1052
G01 X-48.1106 Y7.1147
G01 X-48.0818 Y7.1284
G01 X-48.0544 Y7.1448
G01 X-48.0327 Y7.1608
G01 X-48.0251 Y7.1670
G01 X-48.0052 Y7.1852
G01 X-47.9870 Y7.2051
G01 X-47.9823 Y7.2106
G01 X-47.9676 Y7.2304
G01 X-47.9621 Y7.2386
G01 X-47.9484 Y7.2618
G01 X-47.9347 Y7.2907
G01 X-47.9240 Y7.3207
G01 X-47.9173 Y7.3468
G01 X-47.9154 Y7.3564
G01 X-47.9116 Y7.3831
G01 X-47.9100 Y7.4150
G01 X-47.9100 Y7.8650
G01 X-47.9112 Y7.8920
G01 X-47.9122 Y7.9017
G01 X-47.9162 Y7.9284
G01 X-47.9240 Y7.9593
G01 X-47.9347 Y7.9894
G01 X-47.9484 Y8.0182
G01 X-47.9648 Y8.0456
G01 X-47.9808 Y8.0673
G01 X-47.9870 Y8.0749
G01 X-48.0052 Y8.0948
G01 X-48.0251 Y8.1130
G01 X-48.0327 Y8.1192
G01 X-48.0544 Y8.1352
G01 X-48.0818 Y8.1516
G01 X-48.1061 Y8.1633
G01 X-48.1152 Y8.1670
G01 X-48.1404 Y8.1759
G01 X-48.1668 Y8.1827
G01 X-48.1740 Y8.1842
G01 X-48.2007 Y8.1882
G01 X-48.2350 Y8.1900
G01 X-48.9899 Y8.1899
G01 X-49.0169 Y8.1884
G01 X-49.0436 Y8.1846
G01 X-49.0508 Y8.1832
G01 X-49.0746 Y8.1773
G01 X-49.0840 Y8.1745
G01 X-49.1094 Y8.1653
G01 X-49.1382 Y8.1516
G01 X-49.1656 Y8.1352
G01 X-49.1912 Y8.1162
G01 X-49.2148 Y8.0948
G01 X-49.2330 Y8.0749
G01 X-49.2392 Y8.0673
G01 X-49.2552 Y8.0456
G01 X-49.2692 Y8.0225
G01 X-49.2728 Y8.0160
G01 X-49.2833 Y7.9939
G01 X-49.2870 Y7.9848
G01 X-49.2960 Y7.9593
G01 X-49.3038 Y7.9284
G01 X-49.3084 Y7.8969
G01 X-49.3100 Y7.8650
G01 X-49.3100 Y7.4125
G01 X-49.3084 Y7.3831
G01 X-49.3046 Y7.3564
G01 X-49.3032 Y7.3492
G01 X-49.2973 Y7.3254
G01 X-49.2945 Y7.3160
G00 Z2.0000
G00 X-46.2605 Y7.3718
G01 F20.00
G01 Z0.0000
G01 F120.00
G01 X-46.2520 Y7.2884
G01 X-46.2058 Y7.1489
G01 X-46.1290 Y7.0244
G01 X-46.0256 Y6.9210
G01 X-45.9012 Y6.8442
G01 X-45.7616 Y6.7980
G01 X-45.6783 Y6.7895
G01 X-44.8418 Y6.7895
G01 X-44.7583 Y6.7980
G01 X-44.6189 Y6.8442
G01 X-44.4944 Y6.9210
G01 X-44.3910 Y7.0244
G01 X-44.3142 Y7.1489
G01 X-44.2680 Y7.2884
G01 X-44.2595 Y7.3717
G01 X-44.2595 Y7.9082
G01 X-44.2680 Y7.9917
G01 X-44.3142 Y8.1311
G01 X-44.3910 Y8.2556
G01 X-44.4944 Y8.3590
G01 X-44.6188 Y8.4358
G01 X-44.7583 Y8.4820
G01 X-44.8417 Y8.4905
G01 X-45.6782 Y8.4905
G01 X-45.7617 Y8.4820
G01 X-45.9011 Y8.4358
G01 X-46.0256 Y8.3590
G01 X-46.1290 Y8.2556
G01 X-46.2058 Y8.1312
G01 X-46.2520 Y7.9917
G01 X-46.2605 Y7.9083
G01 X-46.2605 Y7.3718
G00 Z2.0000
G00 X-45.9445 Y7.3160
G01 F20.00
G01 Z0.0000
G01 F120.00
G01 X-45.9353 Y7.2906
G01 X-45.9238 Y7.2662
G01 X-45.9192 Y7.2575
G01 X-45.9052 Y7.2344
G01 X-45.8892 Y7.2127
G01 X-45.8830 Y7.2051
G01 X-45.8648 Y7.1852
G01 X-45.8431 Y7.1654
G01 X-45.8196 Y7.1476
G01 X-45.8114 Y7.1421
G01 X-45.7882 Y7.1284
G01 X-45.7639 Y7.1167
G01 X-45.7548 Y7.1130
G01 X-45.7293 Y7.1040
G01 X-45.7032 Y7.0973
G01 X-45.6936 Y7.0954
G01 X-45.6669 Y7.0916
G01 X-45.6350 Y7.0900
G01 X-44.8825 Y7.0900
G01 X-44.8556 Y7.0914
G01 X-44.8483 Y7.0922
G01 X-44.8216 Y7.0962
G01 X-44.7954 Y7.1027
G01 X-44.7868 Y7.1052
G01 X-44.7606 Y7.1147
G01 X-44.7318 Y7.1284
G01 X-44.7044 Y7.1448
G01 X-44.6827 Y7.1608
G01 X-44.6751 Y7.1670
G01 X-44.6552 Y7.1852
G01 X-44.6370 Y7.2051
G01 X-44.6323 Y7.2106
G01 X-44.6176 Y7.2304
G01 X-44.6121 Y7.2386
G01 X-44.5984 Y7.2618
G01 X-44.5847 Y7.2907
G01 X-44.5740 Y7.3207
G01 X-44.5673 Y7.3468
G01 X-44.5654 Y7.3564
G01 X-44.5616 Y7.3831
G01 X-44.5600 Y7.4150
G01 X-44.5600 Y7.8650
G01 X-44.5612 Y7.8920
G01 X-44.5622 Y7.9017
G01 X-44.5662 Y7.9284
G01 X-44.5740 Y7.9593
G01 X-44.5847 Y7.9894
G01 X-44.5984 Y8.0182
G01 X-44.6148 Y8.0456
G01 X-44.6308 Y8.0673
G01 X-44.6370 Y8.0749
G01 X-44.6552 Y8.0948
G01 X-44.6751 Y8.1130
G01 X-44.6827 Y8.1192
G01 X-44.7044 Y8.1352
G01 X-44.7318 Y8.1516
G01 X-44.7561 Y8.1633
G01 X-44.7652 Y8.1670
G01 X-44.7904 Y8.1759
G01 X-44.8168 Y8.1827
G01 X-44.8240 Y8.1842
G01 X-44.8507 Y8.1882
G01 X-44.8850 Y8.1900
G01 X-45.6399 Y8.1899
G01 X-45.6669 Y8.1884
G01 X-45.6936 Y8.1846
G01 X-45.7008 Y8.1832
G01 X-45.7246 Y8.1773
G01 X-45.7340 Y8.1745
G01 X-45.7594 Y8.1653
G01 X-45.7882 Y8.1516
G01 X-45.8156 Y8.1352
G01 X-45.8412 Y8.1162
G01 X-45.8648 Y8.0948
G01 X-45.8830 Y8.0749
G01 X-45.8892 Y8.0673
G01 X-45.9052 Y8.0456
G01 X-45.9192 Y8.0225
G01 X-45.9228 Y8.0160
G01 X-45.9333 Y7.9939
G01 X-45.9370 Y7.9848
G01 X-45.9460 Y7.9593
G01 X-45.9538 Y7.9284
G01 X-45.9584 Y7.8969
G01 X-45.9600 Y7.8650
G01 X-45.9600 Y7.4125
G01 X-45.9584 Y7.3831
G01 X-45.9546 Y7.3564
G01 X-45.9532 Y7.3492
G01 X-45.9473 Y7.3254
G01 X-45.9445 Y7.3160
G00 Z2.0000
G00 X-39.9605 Y11.3532
G01 F20.00
G01 Z0.0000
G01 F120.00
G01 X-39.9587 Y11.3305
G01 X-39.9192 Y11.1946
G01 X-39.8484 Y11.0749
G01 X-39.7501 Y10.9766
G01 X-39.6304 Y10.9058
G01 X-39.4945 Y10.8663
G01 X-39.4718 Y10.8645
G01 X-39.0482 Y10.8645
G01 X-39.0255 Y10.8663
G01 X-38.8896 Y10.9058
G01 X-38.7645 Y10.9798
G01 X-38.7552 Y10.9864
G01 X-38.7467 Y10.9912
G01 X-38.7377 Y10.9951
G01 X-38.7269 Y10.9985
G01 X-38.6972 Y11.0148
G01 X-38.6858 Y11.0197
G01 X-38.6764 Y11.0227
G01 X-38.6691 Y11.0243
G01 X-38.6617 Y11.0253
G01 X-38.6518 Y11.0258
G01 X-38.6443 Y11.0256
G01 X-38.5722 Y11.0204
G01 X-38.5598 Y11.0185
G01 X-38.5478 Y11.0150
G01 X-38.5408 Y11.0122
G01 X-38.5341 Y11.0088
G01 X-38.5121 Y10.9950
G01 X-38.5033 Y10.9912
G01 X-38.4969 Y10.9876
G01 X-38.4856 Y10.9798
G01 X-38.3604 Y10.9058
G01 X-38.2245 Y10.8663
G01 X-38.2018 Y10.8645
G01 X-37.7782 Y10.8645
G01 X-37.7555 Y10.8663
G01 X-37.6196 Y10.9058
G01 X-37.4945 Y10.9798
G01 X-37.4852 Y10.9864
G01 X-37.4767 Y10.9912
G01 X-37.4677 Y10.9951
G01 X-37.4569 Y10.9985
G01 X-37.4272 Y11.0148
G01 X-37.4158 Y11.0197
G01 X-37.4064 Y11.0227
G01 X-37.3991 Y11.0243
G01 X-37.3917 Y11.0253
G01 X-37.3818 Y11.0258
G01 X-37.3743 Y11.0256
G01 X-37.3022 Y11.0204
G01 X-37.2898 Y11.0185
G01 X-37.2778 Y11.0150
G01 X-37.2708 Y11.0122
G01 X-37.2641 Y11.0088
G01 X-37.2421 Y10.9950
G01 X-37.2333 Y10.9912
G01 X-37.2269 Y10.9876
G01 X-37.2156 Y10.9798
G01 X-37.0904 Y10.9058
G01 X-36.9545 Y10.8663
G01 X-36.9318 Y10.8645
G01 X-36.5082 Y10.8645
G01 X-36.4855 Y10.8663
G01 X-36.3496 Y10.9058
G01 X-36.2245 Y10.9798
G01 X-36.2152 Y10.9864
G01 X-36.2067 Y10.9912
G01 X-36.1977 Y10.9951
G01 X-36.1869 Y10.9985
G01 X-36.1572 Y11.0148
G01 X-36.1458 Y11.0197
G01 X-36.1364 Y11.0227
G01 X-36.1291 Y11.0243
G01 X-36.1217 Y11.0253
G01 X-36.1118 Y11.0258
G01 X-36.1043 Y11.0256
G01 X-36.0322 Y11.0204
G01 X-36.0198 Y11.0185
G01 X-36.0078 Y11.0150
G01 X-36.0008 Y11.0122
G01 X-35.9941 Y11.0088
G01 X-35.9721 Y10.9950
G01 X-35.9633 Y10.9912
G01 X-35.9569 Y10.9876
G01 X-35.9456 Y10.9798
G01 X-35.8204 Y10.9058
G01 X-35.6845 Y10.8663
G01 X-35.6618 Y10.8645
G01 X-35.2382 Y10.8645
G01 X-35.2155 Y10.8663
G01 X-35.0796 Y10.9058
G01 X-34.9545 Y10.9798
G01 X-34.9452 Y10.9864
G01 X-34.9367 Y10.9912
G01 X-34.9277 Y10.9951
G01 X-34.9169 Y10.9985
G01 X-34.8872 Y11.0148
G01 X-34.8758 Y11.0197
G01 X-34.8664 Y11.0227
G01 X-34.8591 Y11.0243
G01 X-34.8517 Y11.0253
G01 X-34.8418 Y11.0258
G01 X-34.8343 Y11.0256
G01 X-34.7622 Y11.0204
G01 X-34.7498 Y11.0185
G01 X-34.7378 Y11.0150
G01 X-34.7308 Y11.0122
G01 X-34.7241 Y11.0088
G01 X-34.7021 Y10.9950
G01 X-34.6933 Y10.9912
G01 X-34.6869 Y10.9876
G01 X-34.6756 Y10.9798
G01 X-34.5504 Y10.9058
G01 X-34.4145 Y10.8663
G01 X-34.3918 Y10.8645
G01 X-33.9682 Y10.8645
G01 X-33.9455 Y10.8663
G01 X-33.8096 Y10.9058
G01 X-33.6845 Y10.9798
G01 X-33.6752 Y10.9864
G01 X-33.6667 Y10.9912
G01 X-33.6577 Y10.9951
G01 X-33.6469 Y10.9985
G01 X-33.6172 Y11.0148
G01 X-33.6058 Y11.0197
G01 X-33.5987 Y11.0220
G01 X-33.5891 Y11.0243
G01 X-33.5792 Y11.0255
G01 X-33.5718 Y11.0258
G01 X-33.5643 Y11.0256
G01 X-33.4922 Y11.0204
G01 X-33.4798 Y11.0185
G01 X-33.4678 Y11.0150
G01 X-33.4608 Y11.0122
G01 X-33.4541 Y11.0088
G01 X-33.4321 Y10.9950
G01 X-33.4233 Y10.9912
G01 X-33.4169 Y10.9876
G01 X-33.4056 Y10.9798
G01 X-33.2804 Y10.9058
G01 X-33.1445 Y10.8663
G01 X-33.1218 Y10.8645
G01 X-32.6982 Y10.8645
G01 X-32.6755 Y10.8663
G01 X-32.5396 Y10.9058
G01 X-32.4145 Y10.9798
G01 X-32.4052 Y10.9864
G01 X-32.3967 Y10.9912
G01 X-32.3877 Y10.9951
G01 X-32.3769 Y10.9985
G01 X-32.3472 Y11.0148
G01 X-32.3358 Y11.0197
G01 X-32.3264 Y11.0227
G01 X-32.3191 Y11.0243
G01 X-32.3117 Y11.0253
G01 X-32.3018 Y11.0258
G01 X-32.2943 Y11.0256
G01 X-32.2222 Y11.0204
G01 X-32.2098 Y11.0185
G01 X-32.1978 Y11.0150
G01 X-32.1908 Y11.0122
G01 X-32.1841 Y11.0088
G01 X-32.1621 Y10.9950
G01 X-32.1533 Y10.9912
G01 X-32.1469 Y10.9876
G01 X-32.1356 Y10.9798
G01 X-32.0104 Y10.9058
G01 X-31.8745 Y10.8663
G01 X-31.8518 Y10.8645
G01 X-31.4282 Y10.8645
G01 X-31.4055 Y10.8663
G01 X-31.2696 Y10.9058
G01 X-31.1445 Y10.9798
G01 X-31.1352 Y10.9864
G01 X-31.1267 Y10.9912
G01 X-31.1177 Y10.9951
G01 X-31.1069 Y10.9985
G01 X-31.0772 Y11.0148
G01 X-31.0658 Y11.0197
G01 X-31.0587 Y11.0220
G01 X-31.0491 Y11.0243
G01 X-31.0417 Y11.0253
G01 X-31.0318 Y11.0258
G01 X-31.0243 Y11.0256
G01 X-30.9522 Y11.0204
G01 X-30.9398 Y11.0185
G01 X-30.9278 Y11.0150
G01 X-30.9208 Y11.0122
G01 X-30.9141 Y11.0088
G01 X-30.8921 Y10.9950
G01 X-30.8833 Y10.9912
G01 X-30.8769 Y10.9876
G01 X-30.8656 Y10.9798
G01 X-30.7404 Y10.9058
G01 X-30.6045 Y10.8663
G01 X-30.5818 Y10.8645
G01 X-30.1582 Y10.8645
G01 X-30.1355 Y10.8663
G01 X-29.9996 Y10.9058
G01 X-29.8745 Y10.9798
G01 X-29.8652 Y10.9864
G01 X-29.8567 Y10.9912
G01 X-29.8477 Y10.9951
G01 X-29.8369 Y10.9985
G01 X-29.8072 Y11.0148
G01 X-29.7958 Y11.0197
G01 X-29.7887 Y11.0220
G01 X-29.7791 Y11.0243
G01 X-29.7717 Y11.0253
G01 X-29.7618 Y11.0258
G01 X-29.7543 Y11.0256
G01 X-29.6822 Y11.0204
G01 X-29.6698 Y11.0185
G01 X-29.6578 Y11.0150
G01 X-29.6508 Y11.0122
G01 X-29.6441 Y11.0088
G01 X-29.6221 Y10.9950
G01 X-29.6133 Y10.9912
G01 X-29.6069 Y10.9876
G01 X-29.5956 Y10.9798
G01 X-29.4704 Y10.9058
G01 X-29.3345 Y10.8663
G01 X-29.3118 Y10.8645
G01 X-28.8882 Y10.8645
G01 X-28.8655 Y10.8663
G01 X-28.7296 Y10.9058
G01 X-28.6099 Y10.9766
G01 X-28.5116 Y11.0749
G01 X-28.4408 Y11.1946
G01 X-28.4013 Y11.3305
G01 X-28.3995 Y11.3532
G01 X-28.3995 Y13.2268
G01 X-28.4013 Y13.2495
G01 X-28.4408 Y13.3854
G01 X-28.5116 Y13.5051
G01 X-28.6099 Y13.6034
G01 X-28.7296 Y13.6742
G01 X-28.8655 Y13.7137
G01 X-28.8882 Y13.7155
G01 X-29.3118 Y13.7155
G01 X-29.3345 Y13.7137
G01 X-29.4704 Y13.6742
G01 X-29.5955 Y13.6002
G01 X-29.6048 Y13.5937
G01 X-29.6133 Y13.5888
G01 X-29.6223 Y13.5849
G01 X-29.6331 Y13.5815
G01 X-29.6629 Y13.5652
G01 X-29.6743 Y13.5602
G01 X-29.6838 Y13.5573
G01 X-29.6910 Y13.5557
G01 X-29.6984 Y13.5547
G01 X-29.7083 Y13.5541
G01 X-29.7158 Y13.5544
G01 X-29.7880 Y13.5596
G01 X-29.8003 Y13.5616
G01 X-29.8123 Y13.5651
G01 X-29.8192 Y13.5679
G01 X-29.8259 Y13.5712
G01 X-29.8480 Y13.5850
G01 X-29.8567 Y13.5888
G01 X-29.8631 Y13.5924
G01 X-29.8745 Y13.6002
G01 X-29.9996 Y13.6742
G01 X-30.1355 Y13.7137
G01 X-30.1582 Y13.7155
G01 X-30.5818 Y13.7155
G01 X-30.6045 Y13.7137
G01 X-30.7404 Y13.6742
G01 X-30.8655 Y13.6002
G01 X-30.8748 Y13.5937
G01 X-30.8833 Y13.5888
G01 X-30.8923 Y13.5849
G01 X-30.9031 Y13.5815
G01 X-30.9329 Y13.5652
G01 X-30.9443 Y13.5602
G01 X-30.9538 Y13.5573
G01 X-30.9610 Y13.5557
G01 X-30.9684 Y13.5547
G01 X-30.9783 Y13.5541
G01 X-30.9858 Y13.5544
G01 X-31.0580 Y13.5596
G01 X-31.0703 Y13.5616
G01 X-31.0823 Y13.5651
G01 X-31.0892 Y13.5679
G01 X-31.0959 Y13.5712
G01 X-31.1180 Y13.5850
G01 X-31.1267 Y13.5888
G01 X-31.1331 Y13.5924
G01 X-31.1445 Y13.6002
G01 X-31.2696 Y13.6742
G01 X-31.4055 Y13.7137
G01 X-31.4282 Y13.7155
G01 X-31.8518 Y13.7155
G01 X-31.8745 Y13.7137
G01 X-32.0104 Y13.6742
G01 X-32.1355 Y13.6002
G01 X-32.1448 Y13.5937
G01 X-32.1533 Y13.5888
G01 X-32.1623 Y13.5849
G01 X-32.1731 Y13.5815
G01 X-32.2029 Y13.5652
G01 X-32.2143 Y13.5602
G01 X-32.2238 Y13.5573
G01 X-32.2310 Y13.5557
G01 X-32.2384 Y13.5547
G01 X-32.2483 Y13.5541
G01 X-32.2558 Y13.5544
G01 X-32.3280 Y13.5596
G01 X-32.3403 Y13.5616
G01 X-32.3523 Y13.5651
G01 X-32.3592 Y13.5679
G01 X-32.3659 Y13.5712
G01 X-32.3880 Y13.5850
G01 X-32.3967 Y13.5888
G01 X-32.4031 Y13.5924
G01 X-32.4145 Y13.6002
G01 X-32.5396 Y13.6742
G01 X-32.6755 Y13.7137
G01 X-32.6982 Y13.7155
G01 X-33.1218 Y13.7155
G01 X-33.1445 Y13.7137
G01 X-33.2804 Y13.6742
G01 X-33.4055 Y13.6002
G01 X-33.4148 Y13.5937
G01 X-33.4233 Y13.5888
G01 X-33.4323 Y13.5849
G01 X-33.4431 Y13.5815
G01 X-33.4729 Y13.5652
G01 X-33.4843 Y13.5602
G01 X-33.4914 Y13.5579
G01 X-33.5010 Y13.5557
G01 X-33.5084 Y13.5547
G01 X-33.5183 Y13.5541
G01 X-33.5258 Y13.5544
G01 X-33.5980 Y13.5596
G01 X-33.6103 Y13.5616
G01 X-33.6223 Y13.5651
G01 X-33.6292 Y13.5679
G01 X-33.6359 Y13.5712
G01 X-33.6580 Y13.5850
G01 X-33.6667 Y13.5888
G01 X-33.6731 Y13.5924
G01 X-33.6845 Y13.6002
G01 X-33.8096 Y13.6742
G01 X-33.9455 Y13.7137
G01 X-33.9682 Y13.7155
G01 X-34.3918 Y13.7155
G01 X-34.4145 Y13.7137
G01 X-34.5504 Y13.6742
G01 X-34.6755 Y13.6002
G01 X-34.6848 Y13.5937
G01 X-34.6933 Y13.5888
G01 X-34.7023 Y13.5849
G01 X-34.7131 Y13.5815
G01 X-34.7429 Y13.5652
G01 X-34.7543 Y13.5602
G01 X-34.7614 Y13.5579
G01 X-34.7710 Y13.5557
G01 X-34.7784 Y13.5547
G01 X-34.7883 Y13.5541
G01 X-34.7958 Y13.5544
G01 X-34.8680 Y13.5596
G01 X-34.8803 Y13.5616
G01 X-34.8923 Y13.5651
G01 X-34.8992 Y13.5679
G01 X-34.9059 Y13.5712
G01 X-34.9280 Y13.5850
G01 X-34.9367 Y13.5888
G01 X-34.9431 Y13.5924
G01 X-34.9545 Y13.6002
G01 X-35.0796 Y13.6742
G01 X-35.2155 Y13.7137
G01 X-35.2382 Y13.7155
G01 X-35.6618 Y13.7155
G01 X-35.6845 Y13.7137
G01 X-35.8204 Y13.6742
G01 X-35.9455 Y13.6002
G01 X-35.9548 Y13.5937
G01 X-35.9633 Y13.5888
G01 X-35.9723 Y13.5849
G01 X-35.9831 Y13.5815
G01 X-36.0129 Y13.5652
G01 X-36.0243 Y13.5602
G01 X-36.0338 Y13.5573
G01 X-36.0410 Y13.5557
G01 X-36.0484 Y13.5547
G01 X-36.0583 Y13.5541
G01 X-36.0658 Y13.5544
G01 X-36.1380 Y13.5596
G01 X-36.1503 Y13.5616
G01 X-36.1623 Y13.5651
G01 X-36.1692 Y13.5679
G01 X-36.1759 Y13.5712
G01 X-36.1980 Y13.5850
G01 X-36.2067 Y13.5888
G01 X-36.2131 Y13.5924
G01 X-36.2245 Y13.6002
G01 X-36.3496 Y13.6742
G01 X-36.4855 Y13.7137
G01 X-36.5082 Y13.7155
G01 X-36.9318 Y13.7155
G01 X-36.9545 Y13.7137
G01 X-37.0904 Y13.6742
G01 X-37.2155 Y13.6002
G01 X-37.2248 Y13.5937
G01 X-37.2333 Y13.5888
G01 X-37.2423 Y13.5849
G01 X-37.2531 Y13.5815
G01 X-37.2829 Y13.5652
G01 X-37.2943 Y13.5602
G01 X-37.3014 Y13.5579
G01 X-37.3110 Y13.5557
G01 X-37.3184 Y13.5547
G01 X-37.3283 Y13.5541
G01 X-37.3358 Y13.5544
G01 X-37.4080 Y13.5596
G01 X-37.4203 Y13.5616
G01 X-37.4323 Y13.5651
G01 X-37.4392 Y13.5679
G01 X-37.4459 Y13.5712
G01 X-37.4680 Y13.5850
G01 X-37.4767 Y13.5888
G01 X-37.4831 Y13.5924
G01 X-37.4945 Y13.6002
G01 X-37.6196 Y13.6742
G01 X-37.7555 Y13.7137
G01 X-37.7782 Y13.7155
G01 X-38.2018 Y13.7155
G01 X-38.2245 Y13.7137
G01 X-38.3604 Y13.6742
G01 X-38.4855 Y13.6002
G01 X-38.4948 Y13.5937
G01 X-38.5033 Y13.5888
G01 X-38.5123 Y13.5849
G01 X-38.5231 Y13.5815
G01 X-38.5529 Y13.5652
G01 X-38.5643 Y13.5602
G01 X-38.5738 Y13.5573
G01 X-38.5810 Y13.5557
G01 X-38.5884 Y13.5547
G01 X-38.5983 Y13.5541
G01 X-38.6058 Y13.5544
G01 X-38.6780 Y13.5596
G01 X-38.6903 Y13.5616
G01 X-38.7023 Y13.5651
G01 X-38.7092 Y13.5679
G01 X-38.7159 Y13.5712
G01 X-38.7380 Y13.5850
G01 X-38.7467 Y13.5888
G01 X-38.7531 Y13.5924
G01 X-38.7645 Y13.6002
G01 X-38.8896 Y13.6742
G01 X-39.0255 Y13.7137
G01 X-39.0482 Y13.7155
G01 X-39.4718 Y13.7155
G01 X-39.4945 Y13.7137
G01 X-39.6304 Y13.6742
G01 X-39.7501 Y13.6034
G01 X-39.8484 Y13.5051
G01 X-39.9192 Y13.3854
G01 X-39.9587 Y13.2495
G01 X-39.9605 Y13.2268
G01 X-39.9605 Y11.3532
G00 Z2.0000
G00 X-39.6505 Y13.2328
G01 F20.00
G01 Z0.0000
G01 F120.00
G01 X-39.6552 Y13.2138
G01 X-39.6582 Y13.1944
G01 X-39.6592 Y13.1846
G01 X-39.6600 Y13.1650
G01 X-39.6600 Y11.4150
G01 X-39.6592 Y11.3954
G01 X-39.6582 Y11.3856
G01 X-39.6552 Y11.3662
G01 X-39.6492 Y11.3424
G01 X-39.6410 Y11.3193
G01 X-39.6327 Y11.3015
G01 X-39.6281 Y11.2929
G01 X-39.6179 Y11.2761
G01 X-39.6063 Y11.2603
G01 X-39.6015 Y11.2544
G01 X-39.5868 Y11.2382
G01 X-39.5723 Y11.2250
G01 X-39.5647 Y11.2187
G01 X-39.5489 Y11.2071
G01 X-39.5321 Y11.1969
G01 X-39.5238 Y11.1925
G01 X-39.5057 Y11.1840
G01 X-39.4802 Y11.1751
G01 X-39.4588 Y11.1698
G01 X-39.4394 Y11.1668
G01 X-39.4321 Y11.1660
G01 X-39.4125 Y11.1650
G01 X-39.1100 Y11.1650
G01 X-39.0904 Y11.1658
G01 X-39.0806 Y11.1668
G01 X-39.0612 Y11.1698
G01 X-39.0374 Y11.1758
G01 X-39.0143 Y11.1840
G01 X-38.9965 Y11.1923
G01 X-38.9879 Y11.1969
G01 X-38.9711 Y11.2071
G01 X-38.9553 Y11.2187
G01 X-38.9477 Y11.2250
G01 X-38.9332 Y11.2382
G01 X-38.9167 Y11.2564
G01 X-38.9021 Y11.2761
G01 X-38.8919 Y11.2929
G01 X-38.8875 Y11.3012
G01 X-38.8790 Y11.3193
G01 X-38.8708 Y11.3424
G01 X-38.8659 Y11.3614
G01 X-38.8640 Y11.3711
G01 X-38.8610 Y11.3929
G01 X-38.8600 Y11.4150
G01 X-38.8600 Y13.1650
G01 X-38.8608 Y13.1846
G01 X-38.8618 Y13.1944
G01 X-38.8648 Y13.2138
G01 X-38.8708 Y13.2376
G01 X-38.8790 Y13.2607
G01 X-38.8873 Y13.2785
G01 X-38.8919 Y13.2871
G01 X-38.9021 Y13.3039
G01 X-38.9137 Y13.3197
G01 X-38.9200 Y13.3273
G01 X-38.9332 Y13.3418
G01 X-38.9514 Y13.3583
G01 X-38.9671 Y13.3700
G01 X-38.9753 Y13.3755
G01 X-38.9922 Y13.3855
G01 X-39.0098 Y13.3940
G01 X-39.0166 Y13.3969
G01 X-39.0350 Y13.4035
G01 X-39.0564 Y13.4091
G01 X-39.0661 Y13.4110
G01 X-39.0855 Y13.4138
G01 X-39.1075 Y13.4150
G01 X-39.4100 Y13.4150
G01 X-39.4345 Y13.4138
G01 X-39.4539 Y13.4110
G01 X-39.4612 Y13.4097
G01 X-39.4778 Y13.4055
G01 X-39.4872 Y13.4027
G01 X-39.5057 Y13.3960
G01 X-39.5278 Y13.3855
G01 X-39.5489 Y13.3729
G01 X-39.5647 Y13.3613
G01 X-39.5723 Y13.3550
G01 X-39.5850 Y13.3435
G01 X-39.5902 Y13.3382
G01 X-39.6033 Y13.3236
G01 X-39.6179 Y13.3039
G01 X-39.6305 Y13.2828
G01 X-39.6390 Y13.2652
G01 X-39.6419 Y13.2584
G01 X-39.6477 Y13.2422
G01 X-39.6505 Y13.2328
G00 Z2.0000
G00 X-38.3805 Y13.2328
G01 F20.00
G01 Z0.0000
G01 F120.00
G01 X-38.3852 Y13.2138
G01 X-38.3882 Y13.1944
G01 X-38.3892 Y13.1846
G01 X-38.3900 Y13.1650
G01 X-38.3900 Y11.4150
G01 X-38.3892 Y11.3954
G01 X-38.3882 Y11.3856
G01 X-38.3852 Y11.3662
G01 X-38.3792 Y11.3424
G01 X-38.3710 Y11.3193
G01 X-38.3627 Y11.3015
G01 X-38.3581 Y11.2929
G01 X-38.3479 Y11.2761
G01 X-38.3363 Y11.2603
G01 X-38.3315 Y11.2544
G01 X-38.3168 Y11.2382
G01 X-38.3023 Y11.2250
G01 X-38.2947 Y11.2187
G01 X-38.2789 Y11.2071
G01 X-38.2621 Y11.1969
G01 X-38.2538 Y11.1925
G01 X-38.2357 Y11.1840
G01 X-38.2102 Y11.1751
G01 X-38.1888 Y11.1698
G01 X-38.1694 Y11.1668
G01 X-38.1621 Y11.1660
G01 X-38.1425 Y11.1650
G01 X-37.8400 Y11.1650
G01 X-37.8204 Y11.1658
G01 X-37.8106 Y11.1668
G01 X-37.7912 Y11.1698
G01 X-37.7674 Y11.1758
G01 X-37.7443 Y11.1840
G01 X-37.7265 Y11.1923
G01 X-37.7179 Y11.1969
G01 X-37.7011 Y11.2071
G01 X-37.6853 Y11.2187
G01 X-37.6777 Y11.2250
G01 X-37.6632 Y11.2382
G01 X-37.6467 Y11.2564
G01 X-37.6321 Y11.2761
G01 X-37.6219 Y11.2929
G01 X-37.6175 Y11.3012
G01 X-37.6090 Y11.3193
G01 X-37.6008 Y11.3424
G01 X-37.5959 Y11.3614
G01 X-37.5940 Y11.3711
G01 X-37.5910 Y11.3929
G01 X-37.5900 Y11.4150
G01 X-37.5900 Y13.1650
G01 X-37.5908 Y13.1846
G01 X-37.5918 Y13.1944
G01 X-37.5948 Y13.2138
G01 X-37.6008 Y13.2376
G01 X-37.6090 Y13.2607
G01 X-37.6173 Y13.2785
G01 X-37.6219 Y13.2871
G01 X-37.6321 Y13.3039
G01 X-37.6437 Y13.3197
G01 X-37.6500 Y13.3273
G01 X-37.6632 Y13.3418
G01 X-37.6814 Y13.3583
G01 X-37.6971 Y13.3700
G01 X-37.7053 Y13.3755
G01 X-37.7222 Y13.3855
G01 X-37.7398 Y13.3940
G01 X-37.7466 Y13.3969
G01 X-37.7650 Y13.4035
G01 X-37.7864 Y13.4091
G01 X-37.7961 Y13.4110
G01 X-37.8155 Y13.4138
G01 X-37.8375 Y13.4150
G01 X-38.1400 Y13.4150
G01 X-38.1645 Y13.4138
G01 X-38.1839 Y13.4110
G01 X-38.1912 Y13.4097
G01 X-38.2078 Y13.4055
G01 X-38.2172 Y13.4027
G01 X-38.2357 Y13.3960
G01 X-38.2578 Y13.3855
G01 X-38.2789 Y13.3729
G01 X-38.2947 Y13.3613
G01 X-38.3023 Y13.3550
G01 X-38.3150 Y13.3435
G01 X-38.3202 Y13.3382
G01 X-38.3333 Y13.3236
G01 X-38.3479 Y13.3039
G01 X-38.3605 Y13.2828
G01 X-38.3690 Y13.2652
G01 X-38.3719 Y13.2584
G01 X-38.3777 Y13.2422
G01 X-38.3805 Y13.2328
G00 Z2.0000
G00 X-37.1105 Y13.2328
G01 F20.00
G01 Z0.0000
G01 F120.00
G01 X-37.1152 Y13.2138
G01 X-37.1182 Y13.1944
G01 X-37.1192 Y13.1846
G01 X-37.1200 Y13.1650
G01 X-37.1200 Y11.4150
G01 X-37.1192 Y11.3954
G01 X-37.1182 Y11.3856
G01 X-37.1152 Y11.3662
G01 X-37.1092 Y11.3424
G01 X-37.1010 Y11.3193
G01 X-37.0927 Y11.3015
G01 X-37.0881 Y11.2929
G01 X-37.0779 Y11.2761
G01 X-37.0663 Y11.2603
G01 X-37.0615 Y11.2544
G01 X-37.0468 Y11.2382
G01 X-37.0323 Y11.2250
G01 X-37.0247 Y11.2187
G01 X-37.0089 Y11.2071
G01 X-36.9921 Y11.1969
G01 X-36.9838 Y11.1925
G01 X-36.9657 Y11.1840
G01 X-36.9402 Y11.1751
G01 X-36.9188 Y11.1698
G01 X-36.8994 Y11.1668
G01 X-36.8921 Y11.1660
G01 X-36.8725 Y11.1650
G01 X-36.5700 Y11.1650
G01 X-36.5504 Y11.1658
G01 X-36.5406 Y11.1668
G01 X-36.5212 Y11.1698
G01 X-36.4974 Y11.1758
G01 X-36.4743 Y11.1840
G01 X-36.4565 Y11.1923
G01 X-36.4479 Y11.1969
G01 X-36.4311 Y11.2071
G01 X-36.4153 Y11.2187
G01 X-36.4077 Y11.2250
G01 X-36.3932 Y11.2382
G01 X-36.3767 Y11.2564
G01 X-36.3621 Y11.2761
G01 X-36.3519 Y11.2929
G01 X-36.3475 Y11.3012
G01 X-36.3390 Y11.3193
G01 X-36.3308 Y11.3424
G01 X-36.3259 Y11.3614
G01 X-36.3240 Y11.3711
G01 X-36.3210 Y11.3929
G01 X-36.3200 Y11.4150
G01 X-36.3200 Y13.1650
G01 X-36.3208 Y13.1846
G01 X-36.3218 Y13.1944
G01 X-36.3248 Y13.2138
G01 X-36.3308 Y13.2376
G01 X-36.3390 Y13.2607
G01 X-36.3473 Y13.2785
G01 X-36.3519 Y13.2871
G01 X-36.3621 Y13.3039
G01 X-36.3737 Y13.3197
G01 X-36.3800 Y13.3273
G01 X-36.3932 Y13.3418
G01 X-36.4114 Y13.3583
G01 X-36.4271 Y13.3700
G01 X-36.4353 Y13.3755
G01 X-36.4522 Y13.3855
G01 X-36.4698 Y13.3940
G01 X-36.4766 Y13.3969
G01 X-36.4950 Y13.4035
G01 X-36.5164 Y13.4091
G01 X-36.5261 Y13.4110
G01 X-36.5455 Y13.4138
G01 X-36.5675 Y13.4150
G01 X-36.8700 Y13.4150
G01 X-36.8945 Y13.4138
G01 X-36.9139 Y13.4110
G01 X-36.9212 Y13.4097
G01 X-36.9378 Y13.4055
G01 X-36.9472 Y13.4027
G01 X-36.9657 Y13.3960
G01 X-36.9878 Y13.3855
G01 X-37.0089 Y13.3729
G01 X-37.0247 Y13.3613
G01 X-37.0323 Y13.3550
G01 X-37.0450 Y13.3435
G01 X-37.0502 Y13.3382
G01 X-37.0633 Y13.3236
G01 X-37.0779 Y13.3039
G01 X-37.0905 Y13.2828
G01 X-37.0990 Y13.2652
G01 X-37.1019 Y13.2584
G01 X-37.1077 Y13.2422
G01 X-37.1105 Y13.2328
G00 Z2.0000
G00 X-35.8405 Y13.2328
G01 F20.00
G01 Z0.0000
G01 F120.00
G01 X-35.8452 Y13.2138
G01 X-35.8482 Y13.1944
G01 X-35.8492 Y13.1846
G01 X-35.8500 Y13.1650
G01 X-35.8500 Y11.4150
G01 X-35.8492 Y11.3954
G01 X-35.8482 Y11.3856
G01 X-35.8452 Y11.3662
G01 X-35.8392 Y11.3424
G01 X-35.8310 Y11.3193
G01 X-35.8227 Y11.3015
G01 X-35.8181 Y11.2929
G01 X-35.8079 Y11.2761
G01 X-35.7963 Y11.2603
G01 X-35.7915 Y11.2544
G01 X-35.7768 Y11.2382
G01 X-35.7623 Y11.2250
G01 X-35.7547 Y11.2187
G01 X-35.7389 Y11.2071
G01 X-35.7221 Y11.1969
G01 X-35.7138 Y11.1925
G01 X-35.6957 Y11.1840
G01 X-35.6702 Y11.1751
G01 X-35.6488 Y11.1698
G01 X-35.6294 Y11.1668
G01 X-35.6221 Y11.1660
G01 X-35.6025 Y11.1650
G01 X-35.3000 Y11.1650
G01 X-35.2804 Y11.1658
G01 X-35.2706 Y11.1668
G01 X-35.2512 Y11.1698
G01 X-35.2274 Y11.1758
G01 X-35.2043 Y11.1840
G01 X-35.1865 Y11.1923
G01 X-35.1779 Y11.1969
G01 X-35.1611 Y11.2071
G01 X-35.1453 Y11.2187
G01 X-35.1377 Y11.2250
G01 X-35.1232 Y11.2382
G01 X-35.1067 Y11.2564
G01 X-35.0921 Y11.2761
G01 X-35.0819 Y11.2929
G01 X-35.0775 Y11.3012
G01 X-35.0690 Y11.3193
G01 X-35.0608 Y11.3424
G01 X-35.0559 Y11.3614
G01 X-35.0540 Y11.3711
G01 X-35.0510 Y11.3929
G01 X-35.0500 Y11.4150
G01 X-35.0500 Y13.1650
G01 X-35.0508 Y13.1846
G01 X-35.0518 Y13.1944
G01 X-35.0548 Y13.2138
G01 X-35.0608 Y13.2376
G01 X-35.0690 Y13.2607
G01 X-35.0773 Y13.2785
G01 X-35.0819 Y13.2871
G01 X-35.0921 Y13.3039
G01 X-35.1037 Y13.3197
G01 X-35.1100 Y13.3273
G01 X-35.1232 Y13.3418
G01 X-35.1414 Y13.3583
G01 X-35.1571 Y13.3700
G01 X-35.1653 Y13.3755
G01 X-35.1822 Y13.3855
G01 X-35.1998 Y13.3940
G01 X-35.2066 Y13.3969
G01 X-35.2250 Y13.4035
G01 X-35.2464 Y13.4091
G01 X-35.2561 Y13.4110
G01 X-35.2755 Y13.4138
G01 X-35.2975 Y13.4150
G01 X-35.6000 Y13.4150
G01 X-35.6245 Y13.4138
G01 X-35.6439 Y13.4110
G01 X-35.6512 Y13.4097
G01 X-35.6678 Y13.4055
G01 X-35.6772 Y13.4027
G01 X-35.6957 Y13.3960
G01 X-35.7178 Y13.3855
G01 X-35.7389 Y13.3729
G01 X-35.7547 Y13.3613
G01 X-35.7623 Y13.3550
G01 X-35.7750 Y13.3435
G01 X-35.7802 Y13.3382
G01 X-35.7933 Y13.3236
G01 X-35.8079 Y13.3039
G01 X-35.8205 Y13.2828
G01 X-35.8290 Y13.2652
G01 X-35.8319 Y13.2584
G01 X-35.8377 Y13.2422
G01 X-35.8405 Y13.2328
G00 Z2.0000
G00 X-34.5705 Y13.2328
G01 F20.00
G01 Z0.0000
G01 F120.00
G01 X-34.5752 Y13.2138
G01 X-34.5782 Y13.1944
G01 X-34.5792 Y13.1846
G01 X-34.5800 Y13.1650
G01 X-34.5800 Y11.4150
G01 X-34.5792 Y11.3954
G01 X-34.5782 Y11.3856
G01 X-34.5752 Y11.3662
G01 X-34.5692 Y11.3424
G01 X-34.5610 Y11.3193
G01 X-34.5527 Y11.3015
G01 X-34.5481 Y11.2929
G01 X-34.5379 Y11.2761
G01 X-34.5263 Y11.2603
G01 X-34.5215 Y11.2544
G01 X-34.5068 Y11.2382
G01 X-34.4923 Y11.2250
G01 X-34.4847 Y11.2187
G01 X-34.4689 Y11.2071
G01 X-34.4521 Y11.1969
G01 X-34.4438 Y11.1925
G01 X-34.4257 Y11.1840
G01 X-34.4002 Y11.1751
G01 X-34.3788 Y11.1698
G01 X-34.3594 Y11.1668
G01 X-34.3521 Y11.1660
G01 X-34.3325 Y11.1650
G01 X-34.0300 Y11.1650
G01 X-34.0104 Y11.1658
G01 X-34.0006 Y11.1668
G01 X-33.9812 Y11.1698
G01 X-33.9574 Y11.1758
G01 X-33.9343 Y11.1840
G01 X-33.9165 Y11.1923
G01 X-33.9079 Y11.1969
G01 X-33.8911 Y11.2071
G01 X-33.8753 Y11.2187
G01 X-33.8677 Y11.2250
G01 X-33.8532 Y11.2382
G01 X-33.8367 Y11.2564
G01 X-33.8221 Y11.2761
G01 X-33.8119 Y11.2929
G01 X-33.8075 Y11.3012
G01 X-33.7990 Y11.3193
G01 X-33.7908 Y11.3424
G01 X-33.7859 Y11.3614
G01 X-33.7840 Y11.3711
G01 X-33.7810 Y11.3929
G01 X-33.7800 Y11.4150
G01 X-33.7800 Y13.1650
G01 X-33.7808 Y13.1846
G01 X-33.7818 Y13.1944
G01 X-33.7848 Y13.2138
G01 X-33.7908 Y13.2376
G01 X-33.7990 Y13.2607
G01 X-33.8073 Y13.2785
G01 X-33.8119 Y13.2871
G01 X-33.8221 Y13.3039
G01 X-33.8337 Y13.3197
G01 X-33.8400 Y13.3273
G01 X-33.8532 Y13.3418
G01 X-33.8714 Y13.3583
G01 X-33.8871 Y13.3700
G01 X-33.8953 Y13.3755
G01 X-33.9122 Y13.3855
G01 X-33.9298 Y13.3940
G01 X-33.9366 Y13.3969
G01 X-33.9550 Y13.4035
G01 X-33.9764 Y13.4091
G01 X-33.9861 Y13.4110
G01 X-34.0055 Y13.4138
G01 X-34.0275 Y13.4150
G01 X-34.3300 Y13.4150
G01 X-34.3545 Y13.4138
G01 X-34.3739 Y13.4110
G01 X-34.3812 Y13.4097
G01 X-34.3978 Y13.4055
G01 X-34.4072 Y13.4027
G01 X-34.4257 Y13.3960
G01 X-34.4478 Y13.3855
G01 X-34.4689 Y13.3729
G01 X-34.4847 Y13.3613
G01 X-34.4923 Y13.3550
G01 X-34.5050 Y13.3435
G01 X-34.5102 Y13.3382
G01 X-34.5233 Y13.3236
G01 X-34.5379 Y13.3039
G01 X-34.5505 Y13.2828
G01 X-34.5590 Y13.2652
G01 X-34.5619 Y13.2584
G01 X-34.5677 Y13.2422
G01 X-34.5705 Y13.2328
G00 Z2.0000
G00 X-33.3005 Y13.2328
G01 F20.00
G01 Z0.0000
G01 F120.00
G01 X-33.3052 Y13.2138
G01 X-33.3082 Y13.1944
G01 X-33.3092 Y13.1846
G01 X-33.3100 Y13.1650
G01 X-33.3100 Y11.4150
G01 X-33.3092 Y11.3954
G01 X-33.3082 Y11.3856
G01 X-33.3052 Y11.3662
G01 X-33.2992 Y11.3424
G01 X-33.2910 Y11.3193
G01 X-33.2827 Y11.3015
G01 X-33.2781 Y11.2929
G01 X-33.2679 Y11.2761
G01 X-33.2563 Y11.2603
G01 X-33.2515 Y11.2544
G01 X-33.2368 Y11.2382
G01 X-33.2223 Y11.2250
G01 X-33.2147 Y11.2187
G01 X-33.1989 Y11.2071
G01 X-33.1821 Y11.1969
G01 X-33.1738 Y11.1925
G01 X-33.1557 Y11.1840
G01 X-33.1302 Y11.1751
G01 X-33.1088 Y11.1698
G01 X-33.0894 Y11.1668
G01 X-33.0821 Y11.1660
G01 X-33.0625 Y11.1650
G01 X-32.7600 Y11.1650
G01 X-32.7404 Y11.1658
G01 X-32.7306 Y11.1668
G01 X-32.7112 Y11.1698
G01 X-32.6874 Y11.1758
G01 X-32.6643 Y11.1840
G01 X-32.6465 Y11.1923
G01 X-32.6379 Y11.1969
G01 X-32.6211 Y11.2071
G01 X-32.6053 Y11.2187
G01 X-32.5977 Y11.2250
G01 X-32.5832 Y11.2382
G01 X-32.5667 Y11.2564
G01 X-32.5521 Y11.2761
G01 X-32.5419 Y11.2929
G01 X-32.5375 Y11.3012
G01 X-32.5290 Y11.3193
G01 X-32.5208 Y11.3424
G01 X-32.5159 Y11.3614
G01 X-32.5140 Y11.3711
G01 X-32.5110 Y11.3929
G01 X-32.5100 Y11.4150
G01 X-32.5100 Y13.1650
G01 X-32.5108 Y13.1846
G01 X-32.5118 Y13.1944
G01 X-32.5148 Y13.2138
G01 X-32.5208 Y13.2376
G01 X-32.5290 Y13.2607
G01 X-32.5373 Y13.2785
G01 X-32.5419 Y13.2871
G01 X-32.5521 Y13.3039
G01 X-32.5637 Y13.3197
G01 X-32.5700 Y13.3273
G01 X-32.5832 Y13.3418
G01 X-32.6014 Y13.3583
G01 X-32.6171 Y13.3700
G01 X-32.6253 Y13.3755
G01 X-32.6422 Y13.3855
G01 X-32.6598 Y13.3940
G01 X-32.6666 Y13.3969
G01 X-32.6850 Y13.4035
G01 X-32.7064 Y13.4091
G01 X-32.7161 Y13.4110
G01 X-32.7355 Y13.4138
G01 X-32.7575 Y13.4150
G01 X-33.0600 Y13.4150
G01 X-33.0845 Y13.4138
G01 X-33.1039 Y13.4110
G01 X-33.1112 Y13.4097
G01 X-33.1278 Y13.4055
G01 X-33.1372 Y13.4027
G01 X-33.1557 Y13.3960
G01 X-33.1778 Y13.3855
G01 X-33.1989 Y13.3729
G01 X-33.2147 Y13.3613
G01 X-33.2223 Y13.3550
G01 X-33.2350 Y13.3435
G01 X-33.2402 Y13.3382
G01 X-33.2533 Y13.3236
G01 X-33.2679 Y13.3039
G01 X-33.2805 Y13.2828
G01 X-33.2890 Y13.2652
G01 X-33.2919 Y13.2584
G01 X-33.2977 Y13.2422
G01 X-33.3005 Y13.2328
G00 Z2.0000
G00 X-32.0305 Y13.2328
G01 F20.00
G01 Z0.0000
G01 F120.00
G01 X-32.0352 Y13.2138
G01 X-32.0382 Y13.1944
G01 X-32.0392 Y13.1846
G01 X-32.0400 Y13.1650
G01 X-32.0400 Y11.4150
G01 X-32.0392 Y11.3954
G01 X-32.0382 Y11.3856
G01 X-32.0352 Y11.3662
G01 X-32.0292 Y11.3424
G01 X-32.0210 Y11.3193
G01 X-32.0127 Y11.3015
G01 X-32.0081 Y11.2929
G01 X-31.9979 Y11.2761
G01 X-31.9863 Y11.2603
G01 X-31.9815 Y11.2544
G01 X-31.9668 Y11.2382
G01 X-31.9523 Y11.2250
G01 X-31.9447 Y11.2187
G01 X-31.9289 Y11.2071
G01 X-31.9121 Y11.1969
G01 X-31.9038 Y11.1925
G01 X-31.8857 Y11.1840
G01 X-31.8602 Y11.1751
G01 X-31.8388 Y11.1698
G01 X-31.8194 Y11.1668
G01 X-31.8121 Y11.1660
G01 X-31.7925 Y11.1650
G01 X-31.4900 Y11.1650
G01 X-31.4704 Y11.1658
G01 X-31.4606 Y11.1668
G01 X-31.4412 Y11.1698
G01 X-31.4174 Y11.1758
G01 X-31.3943 Y11.1840
G01 X-31.3765 Y11.1923
G01 X-31.3679 Y11.1969
G01 X-31.3511 Y11.2071
G01 X-31.3353 Y11.2187
G01 X-31.3277 Y11.2250
G01 X-31.3132 Y11.2382
G01 X-31.2967 Y11.2564
G01 X-31.2821 Y11.2761
G01 X-31.2719 Y11.2929
G01 X-31.2675 Y11.3012
G01 X-31.2590 Y11.3193
G01 X-31.2508 Y11.3424
G01 X-31.2459 Y11.3614
G01 X-31.2440 Y11.3711
G01 X-31.2410 Y11.3929
G01 X-31.2400 Y11.4150
G01 X-31.2400 Y13.1650
G01 X-31.2408 Y13.1846
G01 X-31.2418 Y13.1944
G01 X-31.2448 Y13.2138
G01 X-31.2508 Y13.2376
G01 X-31.2590 Y13.2607
G01 X-31.2673 Y13.2785
G01 X-31.2719 Y13.2871
G01 X-31.2821 Y13.3039
G01 X-31.2937 Y13.3197
G01 X-31.3000 Y13.3273
G01 X-31.3132 Y13.3418
G01 X-31.3314 Y13.3583
G01 X-31.3471 Y13.3700
G01 X-31.3553 Y13.3755
G01 X-31.3722 Y13.3855
G01 X-31.3898 Y13.3940
G01 X-31.3966 Y13.3969
G01 X-31.4150 Y13.4035
G01 X-31.4364 Y13.4091
G01 X-31.4461 Y13.4110
G01 X-31.4655 Y13.4138
G01 X-31.4875 Y13.4150
G01 X-31.7900 Y13.4150
G01 X-31.8145 Y13.4138
G01 X-31.8339 Y13.4110
G01 X-31.8412 Y13.4097
G01 X-31.8578 Y13.4055
G01 X-31.8672 Y13.4027
G01 X-31.8857 Y13.3960
G01 X-31.9078 Y13.3855
G01 X-31.9289 Y13.3729
G01 X-31.9447 Y13.3613
G01 X-31.9523 Y13.3550
G01 X-31.9650 Y13.3435
G01 X-31.9702 Y13.3382
G01 X-31.9833 Y13.3236
G01 X-31.9979 Y13.3039
G01 X-32.0105 Y13.2828
G01 X-32.0190 Y13.2652
G01 X-32.0219 Y13.2584
G01 X-32.0277 Y13.2422
G01 X-32.0305 Y13.2328
G00 Z2.0000
G00 X-30.7605 Y13.2328
G01 F20.00
G01 Z0.0000
G01 F120.00
G01 X-30.7652 Y13.2138
G01 X-30.7682 Y13.1944
G01 X-30.7692 Y13.1846
G01 X-30.7700 Y13.1650
G01 X-30.7700 Y11.4150
G01 X-30.7692 Y11.3954
G01 X-30.7682 Y11.3856
G01 X-30.7652 Y11.3662
G01 X-30.7592 Y11.3424
G01 X-30.7510 Y11.3193
G01 X-30.7427 Y11.3015
G01 X-30.7381 Y11.2929
G01 X-30.7279 Y11.2761
G01 X-30.7163 Y11.2603
G01 X-30.7115 Y11.2544
G01 X-30.6968 Y11.2382
G01 X-30.6823 Y11.2250
G01 X-30.6747 Y11.2187
G01 X-30.6589 Y11.2071
G01 X-30.6421 Y11.1969
G01 X-30.6338 Y11.1925
G01 X-30.6157 Y11.1840
G01 X-30.5902 Y11.1751
G01 X-30.5688 Y11.1698
G01 X-30.5494 Y11.1668
G01 X-30.5421 Y11.1660
G01 X-30.5225 Y11.1650
G01 X-30.2200 Y11.1650
G01 X-30.2004 Y11.1658
G01 X-30.1906 Y11.1668
G01 X-30.1712 Y11.1698
G01 X-30.1474 Y11.1758
G01 X-30.1243 Y11.1840
G01 X-30.1065 Y11.1923
G01 X-30.0979 Y11.1969
G01 X-30.0811 Y11.2071
G01 X-30.0653 Y11.2187
G01 X-30.0577 Y11.2250
G01 X-30.0432 Y11.2382
G01 X-30.0267 Y11.2564
G01 X-30.0121 Y11.2761
G01 X-30.0019 Y11.2929
G01 X-29.9975 Y11.3012
G01 X-29.9890 Y11.3193
G01 X-29.9808 Y11.3424
G01 X-29.9759 Y11.3614
G01 X-29.9740 Y11.3711
G01 X-29.9710 Y11.3929
G01 X-29.9700 Y11.4150
G01 X-29.9700 Y13.1650
G01 X-29.9708 Y13.1846
G01 X-29.9718 Y13.1944
G01 X-29.9748 Y13.2138
G01 X-29.9808 Y13.2376
G01 X-29.9890 Y13.2607
G01 X-29.9973 Y13.2785
G01 X-30.0019 Y13.2871
G01 X-30.0121 Y13.3039
G01 X-30.0237 Y13.3197
G01 X-30.0300 Y13.3273
G01 X-30.0432 Y13.3418
G01 X-30.0614 Y13.3583
G01 X-30.0771 Y13.3700
G01 X-30.0853 Y13.3755
G01 X-30.1022 Y13.3855
G01 X-30.1198 Y13.3940
G01 X-30.1266 Y13.3969
G01 X-30.1450 Y13.4035
G01 X-30.1664 Y13.4091
G01 X-30.1761 Y13.4110
G01 X-30.1955 Y13.4138
G01 X-30.2175 Y13.4150
G01 X-30.5200 Y13.4150
G01 X-30.5445 Y13.4138
G01 X-30.5639 Y13.4110
G01 X-30.5712 Y13.4097
G01 X-30.5878 Y13.4055
G01 X-30.5972 Y13.4027
G01 X-30.6157 Y13.3960
G01 X-30.6378 Y13.3855
G01 X-30.6589 Y13.3729
G01 X-30.6747 Y13.3613
G01 X-30.6823 Y13.3550
G01 X-30.6950 Y13.3435
G01 X-30.7002 Y13.3382
G01 X-30.7133 Y13.3236
G01 X-30.7279 Y13.3039
G01 X-30.7405 Y13.2828
G01 X-30.7490 Y13.2652
G01 X-30.7519 Y13.2584
G01 X-30.7577 Y13.2422
G01 X-30.7605 Y13.2328
G00 Z2.0000
G00 X-29.4905 Y13.2328
G01 F20.00
G01 Z0.0000
G01 F120.00
G01 X-29.4952 Y13.2138
G01 X-29.4982 Y13.1944
G01 X-29.4992 Y13.1846
G01 X-29.5000 Y13.1650
G01 X-29.5000 Y11.4150
G01 X-29.4992 Y11.3954
G01 X-29.4982 Y11.3856
G01 X-29.4952 Y11.3662
G01 X-29.4892 Y11.3424
G01 X-29.4810 Y11.3193
G01 X-29.4727 Y11.3015
G01 X-29.4681 Y11.2929
G01 X-29.4579 Y11.2761
G01 X-29.4463 Y11.2603
G01 X-29.4415 Y11.2544
G01 X-29.4268 Y11.2382
G01 X-29.4123 Y11.2250
G01 X-29.4047 Y11.2187
G01 X-29.3889 Y11.2071
G01 X-29.3721 Y11.1969
G01 X-29.3638 Y11.1925
G01 X-29.3457 Y11.1840
G01 X-29.3202 Y11.1751
G01 X-29.2988 Y11.1698
G01 X-29.2794 Y11.1668
G01 X-29.2721 Y11.1660
G01 X-29.2525 Y11.1650
G01 X-28.9500 Y11.1650
G01 X-28.9304 Y11.1658
G01 X-28.9206 Y11.1668
G01 X-28.9012 Y11.1698
G01 X-28.8774 Y11.1758
G01 X-28.8543 Y11.1840
G01 X-28.8365 Y11.1923
G01 X-28.8279 Y11.1969
G01 X-28.8111 Y11.2071
G01 X-28.7953 Y11.2187
G01 X-28.7877 Y11.2250
G01 X-28.7732 Y11.2382
G01 X-28.7567 Y11.2564
G01 X-28.7421 Y11.2761
G01 X-28.7319 Y11.2929
G01 X-28.7275 Y11.3012
G01 X-28.7190 Y11.3193
G01 X-28.7108 Y11.3424
G01 X-28.7059 Y11.3614
G01 X-28.7040 Y11.3711
G01 X-28.7010 Y11.3929
G01 X-28.7000 Y11.4150
G01 X-28.7000 Y13.1650
G01 X-28.7008 Y13.1846
G01 X-28.7018 Y13.1944
G01 X-28.7048 Y13.2138
G01 X-28.7108 Y13.2376
G01 X-28.7190 Y13.2607
G01 X-28.7273 Y13.2785
G01 X-28.7319 Y13.2871
G01 X-28.7421 Y13.3039
G01 X-28.7537 Y13.3197
G01 X-28.7600 Y13.3273
G01 X-28.7732 Y13.3418
G01 X-28.7914 Y13.3583
G01 X-28.8071 Y13.3700
G01 X-28.8153 Y13.3755
G01 X-28.8322 Y13.3855
G01 X-28.8498 Y13.3940
G01 X-28.8566 Y13.3969
G01 X-28.8750 Y13.4035
G01 X-28.8964 Y13.4091
G01 X-28.9061 Y13.4110
G01 X-28.9255 Y13.4138
G01 X-28.9475 Y13.4150
G01 X-29.2500 Y13.4150
G01 X-29.2745 Y13.4138
G01 X-29.2939 Y13.4110
G01 X-29.3012 Y13.4097
G01 X-29.3178 Y13.4055
G01 X-29.3272 Y13.4027
G01 X-29.3457 Y13.3960
G01 X-29.3678 Y13.3855
G01 X-29.3889 Y13.3729
G01 X-29.4047 Y13.3613
G01 X-29.4123 Y13.3550
G01 X-29.4250 Y13.3435
G01 X-29.4302 Y13.3382
G01 X-29.4433 Y13.3236
G01 X-29.4579 Y13.3039
G01 X-29.4705 Y13.2828
G01 X-29.4790 Y13.2652
G01 X-29.4819 Y13.2584
G01 X-29.4877 Y13.2422
G01 X-29.4905 Y13.2328
G00 Z2.0000
G00 X-29.5900 Y15.5600
G01 F20.00
G01 Z0.0000
G01 F120.00
G01 X-29.5900 Y17.0600
G01 X-29.5903 Y17.0674
G01 X-29.5911 Y17.0747
G01 X-29.5924 Y17.0819
G01 X-29.5943 Y17.0890
G01 X-29.5967 Y17.0960
G01 X-29.5996 Y17.1028
G01 X-29.6030 Y17.1093
G01 X-29.6069 Y17.1156
G01 X-29.6143 Y17.1253
G01 X-29.6228 Y17.1341
G01 X-29.6324 Y17.1418
G01 X-29.6429 Y17.1482
G01 X-29.6540 Y17.1533
G01 X-29.6657 Y17.1570
G01 X-29.6778 Y17.1592
G01 X-29.6875 Y17.1600
G01 X-30.5925 Y17.1600
G01 X-30.5998 Y17.1595
G01 X-30.6071 Y17.1585
G01 X-30.6143 Y17.1570
G01 X-30.6214 Y17.1550
G01 X-30.6328 Y17.1504
G01 X-30.6393 Y17.1470
G01 X-30.6456 Y17.1431
G01 X-30.6553 Y17.1357
G01 X-30.6641 Y17.1272
G01 X-30.6718 Y17.1176
G01 X-30.6782 Y17.1071
G01 X-30.6833 Y17.0960
G01 X-30.6870 Y17.0843
G01 X-30.6892 Y17.0722
G01 X-30.6900 Y17.0625
G01 X-30.6900 Y15.5600
G01 X-30.6897 Y15.5526
G01 X-30.6889 Y15.5453
G01 X-30.6876 Y15.5381
G01 X-30.6857 Y15.5310
G01 X-30.6833 Y15.5240
G01 X-30.6804 Y15.5172
G01 X-30.6770 Y15.5107
G01 X-30.6731 Y15.5044
G01 X-30.6673 Y15.4966
G01 X-30.6590 Y15.4876
G01 X-30.6496 Y15.4797
G01 X-30.6393 Y15.4730
G01 X-30.6283 Y15.4676
G01 X-30.6190 Y15.4643
G01 X-30.6071 Y15.4615
G01 X-30.5949 Y15.4601
G01 X-29.6851 Y15.4601
G01 X-29.6778 Y15.4608
G01 X-29.6681 Y15.4624
G01 X-29.6586 Y15.4650
G01 X-29.6495 Y15.4686
G01 X-29.6407 Y15.4730
G01 X-29.6324 Y15.4782
G01 X-29.6247 Y15.4843
G01 X-29.6176 Y15.4910
G01 X-29.6112 Y15.4985
G01 X-29.6055 Y15.5065
G01 X-29.6007 Y15.5150
G01 X-29.5976 Y15.5217
G01 X-29.5943 Y15.5310
G01 X-29.5919 Y15.5405
G01 X-29.5905 Y15.5502
G01 X-29.5900 Y15.5600
G00 Z2.0000
G00 X-28.3200 Y15.5600
G01 F20.00
G01 Z0.0000
G01 F120.00
G01 X-28.3200 Y17.0600
G01 X-28.3203 Y17.0674
G01 X-28.3211 Y17.0747
G01 X-28.3224 Y17.0819
G01 X-28.3243 Y17.0890
G01 X-28.3267 Y17.0960
G01 X-28.3296 Y17.1028
G01 X-28.3330 Y17.1093
G01 X-28.3369 Y17.1156
G01 X-28.3443 Y17.1253
G01 X-28.3528 Y17.1341
G01 X-28.3624 Y17.1418
G01 X-28.3729 Y17.1482
G01 X-28.3840 Y17.1533
G01 X-28.3957 Y17.1570
G01 X-28.4078 Y17.1592
G01 X-28.4175 Y17.1600
G01 X-29.3225 Y17.1600
G01 X-29.3298 Y17.1595
G01 X-29.3371 Y17.1585
G01 X-29.3443 Y17.1570
G01 X-29.3514 Y17.1550
G01 X-29.3628 Y17.1504
G01 X-29.3693 Y17.1470
G01 X-29.3756 Y17.1431
G01 X-29.3853 Y17.1357
G01 X-29.3941 Y17.1272
G01 X-29.4018 Y17.1176
G01 X-29.4082 Y17.1071
G01 X-29.4133 Y17.0960
G01 X-29.4170 Y17.0843
G01 X-29.4192 Y17.0722
G01 X-29.4200 Y17.0625
G01 X-29.4200 Y15.5600
G01 X-29.4197 Y15.5526
G01 X-29.4189 Y15.5453
G01 X-29.4176 Y15.5381
G01 X-29.4157 Y15.5310
G01 X-29.4133 Y15.5240
G01 X-29.4104 Y15.5172
G01 X-29.4070 Y15.5107
G01 X-29.4031 Y15.5044
G01 X-29.3973 Y15.4966
G01 X-29.3890 Y15.4876
G01 X-29.3796 Y15.4797
G01 X-29.3693 Y15.4730
G01 X-29.3583 Y15.4676
G01 X-29.3490 Y15.4643
G01 X-29.3371 Y15.4615
G01 X-29.3249 Y15.4601
G01 X-28.4151 Y15.4601
G01 X-28.4078 Y15.4608
G01 X-28.3981 Y15.4624
G01 X-28.3886 Y15.4650
G01 X-28.3795 Y15.4686
G01 X-28.3707 Y15.4730
G01 X-28.3624 Y15.4782
G01 X-28.3547 Y15.4843
G01 X-28.3476 Y15.4910
G01 X-28.3412 Y15.4985
G01 X-28.3355 Y15.5065
G01 X-28.3307 Y15.5150
G01 X-28.3276 Y15.5217
G01 X-28.3243 Y15.5310
G01 X-28.3219 Y15.5405
G01 X-28.3205 Y15.5502
G01 X-28.3200 Y15.5600
G00 Z2.0000
G00 X-28.0500 Y15.4600
G01 F20.00
G01 Z0.0000
G01 F120.00
G01 X-27.1451 Y15.4601
G01 X-27.1329 Y15.4615
G01 X-27.1210 Y15.4643
G01 X-27.1095 Y15.4686
G01 X-27.1029 Y15.4718
G01 X-27.0965 Y15.4755
G01 X-27.0866 Y15.4827
G01 X-27.0776 Y15.4910
G01 X-27.0697 Y15.5004
G01 X-27.0630 Y15.5107
G01 X-27.0576 Y15.5217
G01 X-27.0536 Y15.5333
G01 X-27.0519 Y15.5405
G01 X-27.0508 Y15.5478
G01 X-27.0500 Y15.5600
G01 X-27.0500 Y17.0625
G01 X-27.0511 Y17.0747
G01 X-27.0536 Y17.0867
G01 X-27.0558 Y17.0937
G01 X-27.0586 Y17.1005
G01 X-27.0642 Y17.1114
G01 X-27.0712 Y17.1215
G01 X-27.0793 Y17.1307
G01 X-27.0847 Y17.1357
G01 X-27.0904 Y17.1403
G01 X-27.1007 Y17.1470
G01 X-27.1117 Y17.1524
G01 X-27.1233 Y17.1564
G01 X-27.1353 Y17.1589
G01 X-27.1475 Y17.1600
G01 X-28.0525 Y17.1600
G01 X-28.0647 Y17.1589
G01 X-28.0767 Y17.1564
G01 X-28.0837 Y17.1542
G01 X-28.0905 Y17.1514
G01 X-28.1014 Y17.1458
G01 X-28.1115 Y17.1388
G01 X-28.1207 Y17.1307
G01 X-28.1257 Y17.1253
G01 X-28.1303 Y17.1196
G01 X-28.1370 Y17.1093
G01 X-28.1424 Y17.0983
G01 X-28.1450 Y17.0914
G01 X-28.1470 Y17.0843
G01 X-28.1492 Y17.0722
G01 X-28.1500 Y17.0600
G01 X-28.1499 Y15.5551
G01 X-28.1489 Y15.5453
G01 X-28.1470 Y15.5357
G01 X-28.1442 Y15.5263
G01 X-28.1404 Y15.5172
G01 X-28.1358 Y15.5086
G01 X-28.1318 Y15.5024
G01 X-28.1257 Y15.4947
G01 X-28.1190 Y15.4876
G01 X-28.1115 Y15.4812
G01 X-28.1035 Y15.4755
G01 X-28.0950 Y15.4707
G01 X-28.0883 Y15.4676
G01 X-28.0790 Y15.4643
G01 X-28.0695 Y15.4619
G01 X-28.0598 Y15.4605
G01 X-28.0500 Y15.4600
G00 Z2.0000
G00 X-31.8600 Y15.4600
G01 F20.00
G01 Z0.0000
G01 F120.00
G01 X-30.9551 Y15.4601
G01 X-30.9429 Y15.4615
G01 X-30.9310 Y15.4643
G01 X-30.9195 Y15.4686
G01 X-30.9129 Y15.4718
G01 X-30.9065 Y15.4755
G01 X-30.8966 Y15.4827
G01 X-30.8876 Y15.4910
G01 X-30.8797 Y15.5004
G01 X-30.8730 Y15.5107
G01 X-30.8676 Y15.5217
G01 X-30.8636 Y15.5333
G01 X-30.8619 Y15.5405
G01 X-30.8608 Y15.5478
G01 X-30.8600 Y15.5600
G01 X-30.8600 Y17.0625
G01 X-30.8611 Y17.0747
G01 X-30.8636 Y17.0867
G01 X-30.8658 Y17.0937
G01 X-30.8686 Y17.1005
G01 X-30.8742 Y17.1114
G01 X-30.8812 Y17.1215
G01 X-30.8893 Y17.1307
G01 X-30.8947 Y17.1357
G01 X-30.9004 Y17.1403
G01 X-30.9107 Y17.1470
G01 X-30.9217 Y17.1524
G01 X-30.9333 Y17.1564
G01 X-30.9453 Y17.1589
G01 X-30.9575 Y17.1600
G01 X-31.8625 Y17.1600
G01 X-31.8747 Y17.1589
G01 X-31.8867 Y17.1564
G01 X-31.8937 Y17.1542
G01 X-31.9005 Y17.1514
G01 X-31.9114 Y17.1458
G01 X-31.9215 Y17.1388
G01 X-31.9307 Y17.1307
G01 X-31.9357 Y17.1253
G01 X-31.9403 Y17.1196
G01 X-31.9470 Y17.1093
G01 X-31.9524 Y17.0983
G01 X-31.9550 Y17.0914
G01 X-31.9570 Y17.0843
G01 X-31.9592 Y17.0722
G01 X-31.9600 Y17.0600
G01 X-31.9599 Y15.5551
G01 X-31.9589 Y15.5453
G01 X-31.9570 Y15.5357
G01 X-31.9542 Y15.5263
G01 X-31.9504 Y15.5172
G01 X-31.9458 Y15.5086
G01 X-31.9418 Y15.5024
G01 X-31.9357 Y15.4947
G01 X-31.9290 Y15.4876
G01 X-31.9215 Y15.4812
G01 X-31.9135 Y15.4755
G01 X-31.9050 Y15.4707
G01 X-31.8983 Y15.4676
G01 X-31.8890 Y15.4643
G01 X-31.8795 Y15.4619
G01 X-31.8698 Y15.4605
G01 X-31.8600 Y15.4600
G00 Z2.0000
G00 X-32.1300 Y15.5600
G01 F20.00
G01 Z0.0000
G01 F120.00
G01 X-32.1300 Y17.0600
G01 X-32.1303 Y17.0674
G01 X-32.1311 Y17.0747
G01 X-32.1324 Y17.0819
G01 X-32.1343 Y17.0890
G01 X-32.1367 Y17.0960
G01 X-32.1396 Y17.1028
G01 X-32.1430 Y17.1093
G01 X-32.1469 Y17.1156
G01 X-32.1543 Y17.1253
G01 X-32.1628 Y17.1341
G01 X-32.1724 Y17.1418
G01 X-32.1829 Y17.1482
G01 X-32.1940 Y17.1533
G01 X-32.2033 Y17.1564
G01 X-32.2153 Y17.1589
G01 X-32.2275 Y17.1600
G01 X-33.1325 Y17.1600
G01 X-33.1398 Y17.1595
G01 X-33.1471 Y17.1585
G01 X-33.1543 Y17.1570
G01 X-33.1614 Y17.1550
G01 X-33.1683 Y17.1524
G01 X-33.1750 Y17.1493
G01 X-33.1856 Y17.1431
G01 X-33.1953 Y17.1357
G01 X-33.2024 Y17.1290
G01 X-33.2103 Y17.1196
G01 X-33.2170 Y17.1093
G01 X-33.2224 Y17.0983
G01 X-33.2264 Y17.0867
G01 X-33.2289 Y17.0747
G01 X-33.2300 Y17.0625
G01 X-33.2300 Y15.5600
G01 X-33.2297 Y15.5526
G01 X-33.2289 Y15.5453
G01 X-33.2276 Y15.5381
G01 X-33.2257 Y15.5310
G01 X-33.2233 Y15.5240
G01 X-33.2204 Y15.5172
G01 X-33.2170 Y15.5107
G01 X-33.2131 Y15.5044
G01 X-33.2073 Y15.4966
G01 X-33.1990 Y15.4876
G01 X-33.1896 Y15.4797
G01 X-33.1793 Y15.4730
G01 X-33.1683 Y15.4676
G01 X-33.1590 Y15.4643
G01 X-33.1471 Y15.4615
G01 X-33.1349 Y15.4601
G01 X-32.2251 Y15.4601
G01 X-32.2178 Y15.4608
G01 X-32.2081 Y15.4624
G01 X-32.1986 Y15.4650
G01 X-32.1895 Y15.4686
G01 X-32.1807 Y15.4730
G01 X-32.1724 Y15.4782
G01 X-32.1647 Y15.4843
G01 X-32.1576 Y15.4910
G01 X-32.1512 Y15.4985
G01 X-32.1455 Y15.5065
G01 X-32.1407 Y15.5150
G01 X-32.1367 Y15.5240
G01 X-32.1336 Y15.5333
G01 X-32.1315 Y15.5429
G01 X-32.1305 Y15.5502
G01 X-32.1300 Y15.5600
G00 Z2.0000
G00 X-33.4000 Y15.5600
G01 F20.00
G01 Z0.0000
G01 F120.00
G01 X-33.4000 Y17.0600
G01 X-33.4003 Y17.0674
G01 X-33.4011 Y17.0747
G01 X-33.4024 Y17.0819
G01 X-33.4043 Y17.0890
G01 X-33.4067 Y17.0960
G01 X-33.4096 Y17.1028
G01 X-33.4130 Y17.1093
G01 X-33.4169 Y17.1156
G01 X-33.4243 Y17.1253
G01 X-33.4328 Y17.1341
G01 X-33.4424 Y17.1418
G01 X-33.4529 Y17.1482
G01 X-33.4640 Y17.1533
G01 X-33.4733 Y17.1564
G01 X-33.4853 Y17.1589
G01 X-33.4975 Y17.1600
G01 X-34.4025 Y17.1600
G01 X-34.4098 Y17.1595
G01 X-34.4171 Y17.1585
G01 X-34.4243 Y17.1570
G01 X-34.4314 Y17.1550
G01 X-34.4383 Y17.1524
G01 X-34.4450 Y17.1493
G01 X-34.4556 Y17.1431
G01 X-34.4653 Y17.1357
G01 X-34.4724 Y17.1290
G01 X-34.4803 Y17.1196
G01 X-34.4870 Y17.1093
G01 X-34.4924 Y17.0983
G01 X-34.4964 Y17.0867
G01 X-34.4989 Y17.0747
G01 X-34.5000 Y17.0625
G01 X-34.5000 Y15.5600
G01 X-34.4997 Y15.5526
G01 X-34.4989 Y15.5453
G01 X-34.4976 Y15.5381
G01 X-34.4957 Y15.5310
G01 X-34.4933 Y15.5240
G01 X-34.4904 Y15.5172
G01 X-34.4870 Y15.5107
G01 X-34.4831 Y15.5044
G01 X-34.4773 Y15.4966
G01 X-34.4690 Y15.4876
G01 X-34.4596 Y15.4797
G01 X-34.4493 Y15.4730
G01 X-34.4383 Y15.4676
G01 X-34.4290 Y15.4643
G01 X-34.4171 Y15.4615
G01 X-34.4049 Y15.4601
G01 X-33.4951 Y15.4601
G01 X-33.4878 Y15.4608
G01 X-33.4781 Y15.4624
G01 X-33.4686 Y15.4650
G01 X-33.4595 Y15.4686
G01 X-33.4507 Y15.4730
G01 X-33.4424 Y15.4782
G01 X-33.4347 Y15.4843
G01 X-33.4276 Y15.4910
G01 X-33.4212 Y15.4985
G01 X-33.4155 Y15.5065
G01 X-33.4107 Y15.5150
G01 X-33.4067 Y15.5240
G01 X-33.4036 Y15.5333
G01 X-33.4015 Y15.5429
G01 X-33.4005 Y15.5502
G01 X-33.4000 Y15.5600
G00 Z2.0000
G00 X-34.6700 Y15.5600
G01 F20.00
G01 Z0.0000
G01 F120.00
G01 X-34.6700 Y17.0600
G01 X-34.6703 Y17.0674
G01 X-34.6711 Y17.0747
G01 X-34.6724 Y17.0819
G01 X-34.6743 Y17.0890
G01 X-34.6767 Y17.0960
G01 X-34.6796 Y17.1028
G01 X-34.6830 Y17.1093
G01 X-34.6869 Y17.1156
G01 X-34.6943 Y17.1253
G01 X-34.7028 Y17.1341
G01 X-34.7124 Y17.1418
G01 X-34.7229 Y17.1482
G01 X-34.7340 Y17.1533
G01 X-34.7433 Y17.1564
G01 X-34.7553 Y17.1589
G01 X-34.7675 Y17.1600
G01 X-35.6725 Y17.1600
G01 X-35.6798 Y17.1595
G01 X-35.6871 Y17.1585
G01 X-35.6943 Y17.1570
G01 X-35.7014 Y17.1550
G01 X-35.7083 Y17.1524
G01 X-35.7150 Y17.1493
G01 X-35.7256 Y17.1431
G01 X-35.7353 Y17.1357
G01 X-35.7424 Y17.1290
G01 X-35.7503 Y17.1196
G01 X-35.7570 Y17.1093
G01 X-35.7624 Y17.0983
G01 X-35.7664 Y17.0867
G01 X-35.7689 Y17.0747
G01 X-35.7700 Y17.0625
G01 X-35.7700 Y15.5600
G01 X-35.7697 Y15.5526
G01 X-35.7689 Y15.5453
G01 X-35.7676 Y15.5381
G01 X-35.7657 Y15.5310
G01 X-35.7633 Y15.5240
G01 X-35.7604 Y15.5172
G01 X-35.7570 Y15.5107
G01 X-35.7531 Y15.5044
G01 X-35.7473 Y15.4966
G01 X-35.7390 Y15.4876
G01 X-35.7296 Y15.4797
G01 X-35.7193 Y15.4730
G01 X-35.7083 Y15.4676
G01 X-35.6990 Y15.4643
G01 X-35.6871 Y15.4615
G01 X-35.6749 Y15.4601
G01 X-34.7651 Y15.4601
G01 X-34.7578 Y15.4608
G01 X-34.7481 Y15.4624
G01 X-34.7386 Y15.4650
G01 X-34.7295 Y15.4686
G01 X-34.7207 Y15.4730
G01 X-34.7124 Y15.4782
G01 X-34.7047 Y15.4843
G01 X-34.6976 Y15.4910
G01 X-34.6912 Y15.4985
G01 X-34.6855 Y15.5065
G01 X-34.6807 Y15.5150
G01 X-34.6767 Y15.5240
G01 X-34.6736 Y15.5333
G01 X-34.6715 Y15.5429
G01 X-34.6705 Y15.5502
G01 X-34.6700 Y15.5600
G00 Z2.0000
G00 X-35.9400 Y15.5600
G01 F20.00
G01 Z0.0000
G01 F120.00
G01 X-35.9400 Y17.0600
G01 X-35.9403 Y17.0674
G01 X-35.9411 Y17.0747
G01 X-35.9424 Y17.0819
G01 X-35.9443 Y17.0890
G01 X-35.9467 Y17.0960
G01 X-35.9496 Y17.1028
G01 X-35.9530 Y17.1093
G01 X-35.9569 Y17.1156
G01 X-35.9643 Y17.1253
G01 X-35.9728 Y17.1341
G01 X-35.9824 Y17.1418
G01 X-35.9929 Y17.1482
G01 X-36.0040 Y17.1533
G01 X-36.0133 Y17.1564
G01 X-36.0253 Y17.1589
G01 X-36.0375 Y17.1600
G01 X-36.9425 Y17.1600
G01 X-36.9498 Y17.1595
G01 X-36.9571 Y17.1585
G01 X-36.9643 Y17.1570
G01 X-36.9714 Y17.1550
G01 X-36.9783 Y17.1524
G01 X-36.9850 Y17.1493
G01 X-36.9956 Y17.1431
G01 X-37.0053 Y17.1357
G01 X-37.0124 Y17.1290
G01 X-37.0203 Y17.1196
G01 X-37.0270 Y17.1093
G01 X-37.0324 Y17.0983
G01 X-37.0364 Y17.0867
G01 X-37.0389 Y17.0747
G01 X-37.0400 Y17.0625
G01 X-37.0400 Y15.5600
G01 X-37.0397 Y15.5526
G01 X-37.0389 Y15.5453
G01 X-37.0376 Y15.5381
G01 X-37.0357 Y15.5310
G01 X-37.0333 Y15.5240
G01 X-37.0304 Y15.5172
G01 X-37.0270 Y15.5107
G01 X-37.0231 Y15.5044
G01 X-37.0173 Y15.4966
G01 X-37.0090 Y15.4876
G01 X-36.9996 Y15.4797
G01 X-36.9893 Y15.4730
G01 X-36.9783 Y15.4676
G01 X-36.9690 Y15.4643
G01 X-36.9571 Y15.4615
G01 X-36.9449 Y15.4601
G01 X-36.0351 Y15.4601
G01 X-36.0278 Y15.4608
G01 X-36.0181 Y15.4624
G01 X-36.0086 Y15.4650
G01 X-35.9995 Y15.4686
G01 X-35.9907 Y15.4730
G01 X-35.9824 Y15.4782
G01 X-35.9747 Y15.4843
G01 X-35.9676 Y15.4910
G01 X-35.9612 Y15.4985
G01 X-35.9555 Y15.5065
G01 X-35.9507 Y15.5150
G01 X-35.9467 Y15.5240
G01 X-35.9436 Y15.5333
G01 X-35.9415 Y15.5429
G01 X-35.9405 Y15.5502
G01 X-35.9400 Y15.5600
G00 Z2.0000
G00 X-38.2100 Y15.4600
G01 F20.00
G01 Z0.0000
G01 F120.00
G01 X-37.3051 Y15.4601
G01 X-37.2978 Y15.4608
G01 X-37.2905 Y15.4619
G01 X-37.2786 Y15.4650
G01 X-37.2672 Y15.4696
G01 X-37.2565 Y15.4755
G01 X-37.2466 Y15.4827
G01 X-37.2376 Y15.4910
G01 X-37.2297 Y15.5004
G01 X-37.2230 Y15.5107
G01 X-37.2176 Y15.5217
G01 X-37.2136 Y15.5333
G01 X-37.2111 Y15.5453
G01 X-37.2103 Y15.5526
G01 X-37.2100 Y15.5600
G01 X-37.2100 Y17.0625
G01 X-37.2111 Y17.0747
G01 X-37.2124 Y17.0819
G01 X-37.2143 Y17.0890
G01 X-37.2186 Y17.1005
G01 X-37.2242 Y17.1114
G01 X-37.2282 Y17.1176
G01 X-37.2327 Y17.1234
G01 X-37.2410 Y17.1324
G01 X-37.2504 Y17.1403
G01 X-37.2607 Y17.1470
G01 X-37.2717 Y17.1524
G01 X-37.2833 Y17.1564
G01 X-37.2953 Y17.1589
G01 X-37.3075 Y17.1600
G01 X-38.2125 Y17.1600
G01 X-38.2247 Y17.1589
G01 X-38.2367 Y17.1564
G01 X-38.2437 Y17.1542
G01 X-38.2505 Y17.1514
G01 X-38.2614 Y17.1458
G01 X-38.2676 Y17.1418
G01 X-38.2734 Y17.1373
G01 X-38.2824 Y17.1290
G01 X-38.2903 Y17.1196
G01 X-38.2970 Y17.1093
G01 X-38.3024 Y17.0983
G01 X-38.3064 Y17.0867
G01 X-38.3089 Y17.0747
G01 X-38.3097 Y17.0674
G01 X-38.3100 Y17.0600
G01 X-38.3099 Y15.5551
G01 X-38.3089 Y15.5453
G01 X-38.3070 Y15.5357
G01 X-38.3042 Y15.5263
G01 X-38.3004 Y15.5172
G01 X-38.2958 Y15.5086
G01 X-38.2903 Y15.5004
G01 X-38.2841 Y15.4928
G01 X-38.2790 Y15.4876
G01 X-38.2715 Y15.4812
G01 X-38.2635 Y15.4755
G01 X-38.2550 Y15.4707
G01 X-38.2460 Y15.4667
G01 X-38.2390 Y15.4643
G01 X-38.2295 Y15.4619
G01 X-38.2198 Y15.4605
G01 X-38.2100 Y15.4600
G00 Z2.0000
G00 X-38.4800 Y15.5600
G01 F20.00
G01 Z0.0000
G01 F120.00
G01 X-38.4800 Y17.0600
G01 X-38.4803 Y17.0674
G01 X-38.4811 Y17.0747
G01 X-38.4824 Y17.0819
G01 X-38.4843 Y17.0890
G01 X-38.4867 Y17.0960
G01 X-38.4896 Y17.1028
G01 X-38.4930 Y17.1093
G01 X-38.4969 Y17.1156
G01 X-38.5043 Y17.1253
G01 X-38.5128 Y17.1341
G01 X-38.5224 Y17.1418
G01 X-38.5329 Y17.1482
G01 X-38.5440 Y17.1533
G01 X-38.5533 Y17.1564
G01 X-38.5653 Y17.1589
G01 X-38.5775 Y17.1600
G01 X-39.4825 Y17.1600
G01 X-39.4898 Y17.1595
G01 X-39.4971 Y17.1585
G01 X-39.5043 Y17.1570
G01 X-39.5114 Y17.1550
G01 X-39.5183 Y17.1524
G01 X-39.5250 Y17.1493
G01 X-39.5356 Y17.1431
G01 X-39.5453 Y17.1357
G01 X-39.5524 Y17.1290
G01 X-39.5603 Y17.1196
G01 X-39.5670 Y17.1093
G01 X-39.5724 Y17.0983
G01 X-39.5764 Y17.0867
G01 X-39.5789 Y17.0747
G01 X-39.5800 Y17.0625
G01 X-39.5800 Y15.5600
G01 X-39.5797 Y15.5526
G01 X-39.5789 Y15.5453
G01 X-39.5776 Y15.5381
G01 X-39.5757 Y15.5310
G01 X-39.5733 Y15.5240
G01 X-39.5704 Y15.5172
G01 X-39.5670 Y15.5107
G01 X-39.5631 Y15.5044
G01 X-39.5573 Y15.4966
G01 X-39.5490 Y15.4876
G01 X-39.5396 Y15.4797
G01 X-39.5293 Y15.4730
G01 X-39.5183 Y15.4676
G01 X-39.5090 Y15.4643
G01 X-39.4971 Y15.4615
G01 X-39.4849 Y15.4601
G01 X-38.5751 Y15.4601
G01 X-38.5678 Y15.4608
G01 X-38.5581 Y15.4624
G01 X-38.5486 Y15.4650
G01 X-38.5395 Y15.4686
G01 X-38.5307 Y15.4730
G01 X-38.5224 Y15.4782
G01 X-38.5147 Y15.4843
G01 X-38.5076 Y15.4910
G01 X-38.5012 Y15.4985
G01 X-38.4955 Y15.5065
G01 X-38.4907 Y15.5150
G01 X-38.4867 Y15.5240
G01 X-38.4836 Y15.5333
G01 X-38.4815 Y15.5429
G01 X-38.4805 Y15.5502
G01 X-38.4800 Y15.5600
G00 Z2.0000
G00 X-39.7500 Y15.5600
G01 F20.00
G01 Z0.0000
G01 F120.00
G01 X-39.7500 Y17.0600
G01 X-39.7503 Y17.0674
G01 X-39.7511 Y17.0747
G01 X-39.7524 Y17.0819
G01 X-39.7543 Y17.0890
G01 X-39.7567 Y17.0960
G01 X-39.7596 Y17.1028
G01 X-39.7630 Y17.1093
G01 X-39.7669 Y17.1156
G01 X-39.7743 Y17.1253
G01 X-39.7828 Y17.1341
G01 X-39.7924 Y17.1418
G01 X-39.8029 Y17.1482
G01 X-39.8140 Y17.1533
G01 X-39.8233 Y17.1564
G01 X-39.8353 Y17.1589
G01 X-39.8475 Y17.1600
G01 X-40.7525 Y17.1600
G01 X-40.7598 Y17.1595
G01 X-40.7671 Y17.1585
G01 X-40.7743 Y17.1570
G01 X-40.7814 Y17.1550
G01 X-40.7883 Y17.1524
G01 X-40.7950 Y17.1493
G01 X-40.8056 Y17.1431
G01 X-40.8153 Y17.1357
G01 X-40.8224 Y17.1290
G01 X-40.8303 Y17.1196
G01 X-40.8370 Y17.1093
G01 X-40.8424 Y17.0983
G01 X-40.8464 Y17.0867
G01 X-40.8489 Y17.0747
G01 X-40.8500 Y17.0625
G01 X-40.8500 Y15.5600
G01 X-40.8497 Y15.5526
G01 X-40.8489 Y15.5453
G01 X-40.8476 Y15.5381
G01 X-40.8457 Y15.5310
G01 X-40.8433 Y15.5240
G01 X-40.8404 Y15.5172
G01 X-40.8370 Y15.5107
G01 X-40.8331 Y15.5044
G01 X-40.8273 Y15.4966
G01 X-40.8190 Y15.4876
G01 X-40.8096 Y15.4797
G01 X-40.7993 Y15.4730
G01 X-40.7883 Y15.4676
G01 X-40.7790 Y15.4643
G01 X-40.7671 Y15.4615
G01 X-40.7549 Y15.4601
G01 X-39.8451 Y15.4601
G01 X-39.8378 Y15.4608
G01 X-39.8281 Y15.4624
G01 X-39.8186 Y15.4650
G01 X-39.8095 Y15.4686
G01 X-39.8007 Y15.4730
G01 X-39.7924 Y15.4782
G01 X-39.7847 Y15.4843
G01 X-39.7776 Y15.4910
G01 X-39.7712 Y15.4985
G01 X-39.7655 Y15.5065
G01 X-39.7607 Y15.5150
G01 X-39.7567 Y15.5240
G01 X-39.7536 Y15.5333
G01 X-39.7515 Y15.5429
G01 X-39.7505 Y15.5502
G01 X-39.7500 Y15.5600
G00 Z2.0000
G00 X-42.0200 Y15.4600
G01 F20.00
G01 Z0.0000
G01 F120.00
G01 X-41.1151 Y15.4601
G01 X-41.1078 Y15.4608
G01 X-41.1005 Y15.4619
G01 X-41.0886 Y15.4650
G01 X-41.0772 Y15.4696
G01 X-41.0665 Y15.4755
G01 X-41.0566 Y15.4827
G01 X-41.0476 Y15.4910
G01 X-41.0397 Y15.5004
G01 X-41.0330 Y15.5107
G01 X-41.0276 Y15.5217
G01 X-41.0236 Y15.5333
G01 X-41.0211 Y15.5453
G01 X-41.0203 Y15.5526
G01 X-41.0200 Y15.5600
G01 X-41.0200 Y17.0625
G01 X-41.0211 Y17.0747
G01 X-41.0224 Y17.0819
G01 X-41.0243 Y17.0890
G01 X-41.0286 Y17.1005
G01 X-41.0342 Y17.1114
G01 X-41.0382 Y17.1176
G01 X-41.0427 Y17.1234
G01 X-41.0510 Y17.1324
G01 X-41.0604 Y17.1403
G01 X-41.0707 Y17.1470
G01 X-41.0817 Y17.1524
